;(.../Electronics/Eagle/pcb-gcode/pcb-gcode.ulp)
;(Copyright 2005 - 2012 by John Johnson)
;(See readme.txt for licensing terms.)
;(This file generated from the board:)
;(.../VL53L0X-version/Electronics/interface.brd)
;(Current profile is .../pcb-gcode/profiles/generic.pp  )
;(This file generated 30/05/2019 16:26)
;(Settings from pcb-machine.h)
;(spindle on time = 1000.0000)
;(  Tool Size)
;(0.1778 )
;(spindle speed = 30000.0000)
;(tool change at 0.0000 0.0000 5.0000 )
;(feed rate xy = F500.00 )
;(feed rate z  = F200.00 )
;(Z Axis Settings)
;(  High     Up        Down     Drill)
;(5.0000 	2.0000 	-0.2000 	-2.0000 )
;(Settings from pcb-defaults.h)
;(isolate min = 0.0250)
;(isolate max = 0.5000)
;(isolate step = 0.0800)
;(Generated top outlines, top drill, )
;(Unit of measure: mm)
;(Metric Mode)
G21
;(Absolute Coordinates)
G90
;S30000
G00 Z5.0000  F3000
G00 X0.0000 Y0.0000  F3000
;M03 S1
G04 P1000.000000
G00 Z2.0000  F3000
G00 X6.9396 Y1.2196  F3000
G01 Z-0.2000 F200.00 
G01 X7.0616 Y1.0976 F500.00 
G01 X7.2051 Y1.0018 
G01 X7.3645 Y0.9358 
G01 X7.5337 Y0.9021 
G01 X7.7063 Y0.9021 
G01 X7.8755 Y0.9358 
G01 X8.0349 Y1.0018 
G01 X8.1784 Y1.0976 
G01 X8.3004 Y1.2196 
G01 X8.3962 Y1.3631 
G01 X8.4622 Y1.5225 
G01 X8.4959 Y1.6917 
G01 X8.4959 Y3.3883 
G01 X8.4622 Y3.5575 
G01 X8.3962 Y3.7169 
G01 X8.3689 Y3.7578 
G01 X8.3689 Y5.1538 
G01 X8.3401 Y5.2984 
G01 X8.2837 Y5.4347 
G01 X8.2017 Y5.5574 
G01 X6.9317 Y6.8274 
G01 X6.8274 Y6.9317 
G01 X6.7047 Y7.0137 
G01 X6.5684 Y7.0701 
G01 X6.4238 Y7.0989 
G01 X3.9239 Y7.0989 
G01 X3.9239 Y10.0088 
G01 X3.9059 Y10.0993 
G01 X3.9059 Y10.9283 
G01 X3.8722 Y11.0975 
G01 X3.8062 Y11.2569 
G01 X3.7789 Y11.2978 
G01 X3.7789 Y12.2448 
G01 X4.1202 Y12.5861 
G01 X7.0588 Y12.5861 
G01 X7.2034 Y12.6149 
G01 X7.3397 Y12.6713 
G01 X7.4624 Y12.7533 
G01 X9.7066 Y14.9975 
G01 X9.7451 Y14.9718 
G01 X9.9045 Y14.9058 
G01 X10.0737 Y14.8721 
G01 X10.2463 Y14.8721 
G01 X10.4155 Y14.9058 
G01 X10.5749 Y14.9718 
G01 X10.7184 Y15.0676 
G01 X10.8404 Y15.1896 
G01 X10.9362 Y15.3331 
G01 X11.0022 Y15.4925 
G01 X11.0359 Y15.6617 
G01 X11.0359 Y17.3583 
G01 X11.0022 Y17.5275 
G01 X10.9362 Y17.6869 
G01 X10.8404 Y17.8304 
G01 X10.7184 Y17.9524 
G01 X10.5749 Y18.0482 
G01 X10.4155 Y18.1142 
G01 X10.2463 Y18.1479 
G01 X10.0737 Y18.1479 
G01 X9.9045 Y18.1142 
G01 X9.7451 Y18.0482 
G01 X9.6016 Y17.9524 
G01 X9.4796 Y17.8304 
G01 X9.3838 Y17.6869 
G01 X9.3178 Y17.5275 
G01 X9.2841 Y17.3583 
G01 X9.2841 Y16.6932 
G01 X6.6748 Y14.0839 
G01 X3.7362 Y14.0839 
G01 X3.5916 Y14.0551 
G01 X3.4553 Y13.9987 
G01 X3.3326 Y13.9167 
G01 X3.2283 Y13.8124 
G01 X2.4483 Y13.0324 
G01 X2.3663 Y12.9097 
G01 X2.3099 Y12.7734 
G01 X2.2811 Y12.6288 
G01 X2.2811 Y11.2978 
G01 X2.2538 Y11.2569 
G01 X2.1878 Y11.0975 
G01 X2.1541 Y10.9283 
G01 X2.1541 Y9.2317 
G01 X2.1878 Y9.0625 
G01 X2.2538 Y8.9031 
G01 X2.3496 Y8.7596 
G01 X2.4261 Y8.6832 
G01 X2.4261 Y6.2762 
G01 X2.4549 Y6.1316 
G01 X2.5113 Y5.9953 
G01 X2.5933 Y5.8726 
G01 X2.6976 Y5.7683 
G01 X2.8203 Y5.6863 
G01 X2.9566 Y5.6299 
G01 X3.1012 Y5.6011 
G01 X6.0398 Y5.6011 
G01 X6.8711 Y4.7698 
G01 X6.8711 Y3.7578 
G01 X6.8438 Y3.7169 
G01 X6.7778 Y3.5575 
G01 X6.7441 Y3.3883 
G01 X6.7441 Y1.6917 
G01 X6.7778 Y1.5225 
G01 X6.8438 Y1.3631 
G01 X6.9396 Y1.2196 
G00 Z2.0000  F3000
G00 X8.3022 Y1.1126  F3000
G01 Z-0.2000 F200.00 
G01 X8.2716 Y1.0820 F500.00 
G01 X8.2528 Y1.0387 
G01 X8.2528 Y0.9934 
G01 X8.2702 Y0.9515 
G01 X8.3017 Y0.9200 
G01 X8.3441 Y0.9021 
G01 X9.4359 Y0.9021 
G01 X9.4778 Y0.9195 
G01 X9.5098 Y0.9515 
G01 X9.5272 Y0.9934 
G01 X9.5272 Y1.0387 
G01 X9.5098 Y1.0805 
G01 X9.4778 Y1.1126 
G01 X9.3522 Y1.2382 
G01 X9.2071 Y1.5884 
G01 X9.2071 Y3.4915 
G01 X9.3341 Y3.7982 
G01 X9.3341 Y4.5314 
G01 X9.3167 Y4.5733 
G01 X9.2847 Y4.6053 
G01 X9.2191 Y4.6709 
G01 X9.2191 Y6.1291 
G01 X9.3434 Y6.2534 
G01 X9.3739 Y6.2839 
G01 X9.3928 Y6.3273 
G01 X9.3928 Y6.3727 
G01 X9.3755 Y6.4145 
G01 X9.3439 Y6.4461 
G01 X9.2191 Y6.5709 
G01 X9.2191 Y7.1729 
G01 X9.2129 Y7.1878 
G01 X9.1641 Y7.3057 
G01 X9.1641 Y8.6678 
G01 X9.1491 Y8.7040 
G01 X9.1491 Y9.7127 
G01 X9.2873 Y9.8509 
G01 X9.4384 Y9.8509 
G01 X9.4802 Y9.8683 
G01 X9.5045 Y9.8925 
G01 X9.5123 Y9.9003 
G01 X9.5222 Y9.9102 
G01 X9.8257 Y10.0359 
G01 X10.1543 Y10.0359 
G01 X10.4578 Y9.9102 
G01 X10.4677 Y9.9003 
G01 X10.4747 Y9.8933 
G01 X10.4998 Y9.8683 
G01 X10.5416 Y9.8509 
G01 X10.6927 Y9.8509 
G01 X10.8309 Y9.7127 
G01 X10.8309 Y8.7040 
G01 X10.8159 Y8.6678 
G01 X10.8159 Y8.2322 
G01 X10.8333 Y8.1903 
G01 X10.8653 Y8.1583 
G01 X10.9072 Y8.1409 
G01 X10.9891 Y8.1409 
G01 X11.1009 Y8.0291 
G01 X11.1009 Y6.5709 
G01 X10.9766 Y6.4466 
G01 X10.9593 Y6.4293 
G01 X10.9445 Y6.4145 
G01 X10.9272 Y6.3727 
G01 X10.9272 Y6.3273 
G01 X10.9445 Y6.2855 
G01 X11.1009 Y6.1291 
G01 X11.1009 Y4.6709 
G01 X11.0033 Y4.5733 
G01 X10.9859 Y4.5314 
G01 X10.9859 Y3.7982 
G01 X10.9870 Y3.7955 
G01 X11.1129 Y3.4915 
G01 X11.1129 Y1.5884 
G01 X10.9678 Y1.2382 
G01 X10.8422 Y1.1126 
G01 X10.8116 Y1.0820 
G01 X10.7928 Y1.0387 
G01 X10.7928 Y0.9934 
G01 X10.8102 Y0.9515 
G01 X10.8417 Y0.9200 
G01 X10.8841 Y0.9021 
G01 X12.0478 Y0.9021 
G01 X12.0896 Y0.9195 
G01 X12.1217 Y0.9515 
G01 X12.1316 Y0.9755 
G01 X12.1390 Y0.9934 
G01 X12.1390 Y1.0387 
G01 X12.1217 Y1.0805 
G01 X12.0896 Y1.1126 
G01 X11.9993 Y1.2029 
G01 X11.9005 Y1.3507 
G01 X11.8325 Y1.5149 
G01 X11.7979 Y1.6891 
G01 X11.7979 Y2.4261 
G01 X11.8241 Y2.4261 
G01 X11.8241 Y1.6917 
G01 X11.8578 Y1.5225 
G01 X11.9238 Y1.3631 
G01 X12.0196 Y1.2196 
G01 X12.1416 Y1.0976 
G01 X12.2851 Y1.0018 
G01 X12.4445 Y0.9358 
G01 X12.6137 Y0.9021 
G01 X12.7863 Y0.9021 
G01 X12.9555 Y0.9358 
G01 X13.1149 Y1.0018 
G01 X13.2584 Y1.0976 
G01 X13.3804 Y1.2196 
G01 X13.4762 Y1.3631 
G01 X13.5422 Y1.5225 
G01 X13.5759 Y1.6917 
G01 X13.5759 Y2.4261 
G01 X13.6021 Y2.4261 
G01 X13.6021 Y1.6891 
G01 X13.5674 Y1.5149 
G01 X13.4994 Y1.3507 
G01 X13.4007 Y1.2029 
G01 X13.3104 Y1.1126 
G01 X13.2806 Y1.0828 
G01 X13.2783 Y1.0805 
G01 X13.2610 Y1.0387 
G01 X13.2610 Y0.9934 
G01 X13.2680 Y0.9765 
G01 X13.2783 Y0.9515 
G01 X13.3104 Y0.9195 
G01 X13.3522 Y0.9021 
G01 X14.5159 Y0.9021 
G01 X14.5578 Y0.9195 
G01 X14.5898 Y0.9515 
G01 X14.6072 Y0.9934 
G01 X14.6072 Y1.0387 
G01 X14.5898 Y1.0805 
G01 X14.5578 Y1.1126 
G01 X14.4322 Y1.2382 
G01 X14.2871 Y1.5884 
G01 X14.2871 Y3.4915 
G01 X14.4141 Y3.7981 
G01 X14.4141 Y15.2518 
G01 X14.4130 Y15.2544 
G01 X14.2871 Y15.5584 
G01 X14.2871 Y17.4615 
G01 X14.3259 Y17.5553 
G01 X14.3346 Y17.5762 
G01 X14.3432 Y17.5970 
G01 X14.3432 Y17.6200 
G01 X14.3432 Y17.6423 
G01 X14.3346 Y17.6632 
G01 X14.3259 Y17.6842 
G01 X14.3100 Y17.7001 
G01 X14.2938 Y17.7162 
G01 X14.2729 Y17.7249 
G01 X14.2520 Y17.7336 
G01 X14.2292 Y17.7336 
G01 X14.2066 Y17.7336 
G01 X13.6558 Y17.7322 
G01 X13.6336 Y17.7322 
G01 X13.6127 Y17.7235 
G01 X13.5918 Y17.7148 
G01 X13.5759 Y17.6989 
G01 X13.5597 Y17.6828 
G01 X13.5511 Y17.6619 
G01 X13.5424 Y17.6409 
G01 X13.5424 Y17.6180 
G01 X13.5424 Y17.5956 
G01 X13.5511 Y17.5746 
G01 X13.5674 Y17.5351 
G01 X13.6021 Y17.3609 
G01 X13.6021 Y16.6239 
G01 X13.5759 Y16.6239 
G01 X13.5759 Y17.3583 
G01 X13.5422 Y17.5275 
G01 X13.4762 Y17.6869 
G01 X13.3804 Y17.8304 
G01 X13.2584 Y17.9524 
G01 X13.1149 Y18.0482 
G01 X12.9555 Y18.1142 
G01 X12.7863 Y18.1479 
G01 X12.6137 Y18.1479 
G01 X12.4445 Y18.1142 
G01 X12.2851 Y18.0482 
G01 X12.1416 Y17.9524 
G01 X12.0196 Y17.8304 
G01 X11.9238 Y17.6869 
G01 X11.8578 Y17.5275 
G01 X11.8241 Y17.3583 
G01 X11.8241 Y16.6239 
G01 X11.7979 Y16.6239 
G01 X11.7979 Y17.3609 
G01 X11.8325 Y17.5351 
G01 X11.8383 Y17.5491 
G01 X11.8470 Y17.5699 
G01 X11.8556 Y17.5908 
G01 X11.8556 Y17.6137 
G01 X11.8556 Y17.6361 
G01 X11.8469 Y17.6570 
G01 X11.8383 Y17.6780 
G01 X11.8224 Y17.6939 
G01 X11.8062 Y17.7100 
G01 X11.7853 Y17.7187 
G01 X11.7644 Y17.7273 
G01 X11.7417 Y17.7273 
G01 X11.7190 Y17.7273 
G01 X11.1733 Y17.7259 
G01 X11.1512 Y17.7259 
G01 X11.1302 Y17.7172 
G01 X11.1093 Y17.7086 
G01 X11.0931 Y17.6923 
G01 X11.0773 Y17.6765 
G01 X11.0684 Y17.6551 
G01 X11.0600 Y17.6347 
G01 X11.0600 Y17.6117 
G01 X11.0600 Y17.5894 
G01 X11.0687 Y17.5684 
G01 X11.1129 Y17.4615 
G01 X11.1129 Y15.5584 
G01 X10.9678 Y15.2082 
G01 X10.6998 Y14.9401 
G01 X10.3495 Y14.7951 
G01 X9.9704 Y14.7951 
G01 X9.7672 Y14.8793 
G01 X9.7218 Y14.8793 
G01 X9.7050 Y14.8723 
G01 X9.6800 Y14.8620 
G01 X9.6479 Y14.8299 
G01 X7.4528 Y12.6348 
G01 X7.1493 Y12.5091 
G01 X4.1766 Y12.5091 
G01 X4.1348 Y12.4917 
G01 X4.1027 Y12.4597 
G01 X3.8733 Y12.2302 
G01 X3.8559 Y12.1884 
G01 X3.8559 Y11.3382 
G01 X3.8570 Y11.3355 
G01 X3.9829 Y11.0315 
G01 X3.9829 Y10.1427 
G01 X4.0009 Y10.0993 
G01 X4.0009 Y7.2672 
G01 X4.0183 Y7.2253 
G01 X4.0503 Y7.1933 
G01 X4.0922 Y7.1759 
G01 X6.5143 Y7.1759 
G01 X6.8178 Y7.0502 
G01 X7.0822 Y6.7858 
G01 X8.3202 Y5.5478 
G01 X8.4459 Y5.2443 
G01 X8.4459 Y3.7981 
G01 X8.4474 Y3.7946 
G01 X8.5729 Y3.4915 
G01 X8.5729 Y1.5884 
G01 X8.4278 Y1.2382 
G01 X8.3022 Y1.1126 
G00 Z2.0000  F3000
G00 X9.4796 Y1.2196  F3000
G01 Z-0.2000 F200.00 
G01 X9.6016 Y1.0976 F500.00 
G01 X9.7451 Y1.0018 
G01 X9.9045 Y0.9358 
G01 X10.0737 Y0.9021 
G01 X10.2463 Y0.9021 
G01 X10.4155 Y0.9358 
G01 X10.5749 Y1.0018 
G01 X10.7184 Y1.0976 
G01 X10.8404 Y1.2196 
G01 X10.9362 Y1.3631 
G01 X11.0022 Y1.5225 
G01 X11.0359 Y1.6917 
G01 X11.0359 Y3.3883 
G01 X11.0022 Y3.5575 
G01 X10.9362 Y3.7169 
G01 X10.9089 Y3.7578 
G01 X10.9089 Y4.6361 
G01 X10.9327 Y4.6361 
G01 X10.9745 Y4.6534 
G01 X11.0066 Y4.6855 
G01 X11.0239 Y4.7273 
G01 X11.0239 Y6.0727 
G01 X11.0066 Y6.1145 
G01 X10.9745 Y6.1466 
G01 X10.9327 Y6.1639 
G01 X9.3873 Y6.1639 
G01 X9.3455 Y6.1466 
G01 X9.3134 Y6.1145 
G01 X9.2961 Y6.0727 
G01 X9.2961 Y4.7273 
G01 X9.3134 Y4.6855 
G01 X9.3455 Y4.6534 
G01 X9.3873 Y4.6361 
G01 X9.4111 Y4.6361 
G01 X9.4111 Y3.7578 
G01 X9.3838 Y3.7169 
G01 X9.3178 Y3.5575 
G01 X9.2841 Y3.3883 
G01 X9.2841 Y1.6917 
G01 X9.3178 Y1.5225 
G01 X9.3838 Y1.3631 
G01 X9.4796 Y1.2196 
G00 Z2.0000  F3000
G00 X11.7979 Y2.6539  F3000
G01 Z-0.2000 F200.00 
G01 X11.7979 Y3.3909 F500.00 
G01 X11.8325 Y3.5651 
G01 X11.9005 Y3.7293 
G01 X11.9511 Y3.8050 
G01 X11.9511 Y3.7578 
G01 X11.9238 Y3.7169 
G01 X11.8578 Y3.5575 
G01 X11.8241 Y3.3883 
G01 X11.8241 Y2.6539 
G01 X11.7979 Y2.6539 
G00 Z2.0000  F3000
G00 X13.5759 Y2.6539  F3000
G01 Z-0.2000 F200.00 
G01 X13.5759 Y3.3883 F500.00 
G01 X13.5422 Y3.5575 
G01 X13.4762 Y3.7169 
G01 X13.4489 Y3.7578 
G01 X13.4489 Y3.8050 
G01 X13.4994 Y3.7293 
G01 X13.5674 Y3.5651 
G01 X13.6021 Y3.3909 
G01 X13.6021 Y2.6539 
G01 X13.5759 Y2.6539 
G00 Z2.0000  F3000
G00 X14.3641 Y3.3883  F3000
G01 Z-0.2000 F200.00 
G01 X14.3641 Y1.6917 F500.00 
G01 X14.3978 Y1.5225 
G01 X14.4638 Y1.3631 
G01 X14.5596 Y1.2196 
G01 X14.6816 Y1.0976 
G01 X14.8251 Y1.0018 
G01 X14.9845 Y0.9358 
G01 X15.1537 Y0.9021 
G01 X15.3263 Y0.9021 
G01 X15.4955 Y0.9358 
G01 X15.6549 Y1.0018 
G01 X15.7984 Y1.0976 
G01 X15.9204 Y1.2196 
G01 X16.0162 Y1.3631 
G01 X16.0822 Y1.5225 
G01 X16.1159 Y1.6917 
G01 X16.1159 Y3.3883 
G01 X16.0822 Y3.5575 
G01 X16.0162 Y3.7169 
G01 X15.9889 Y3.7578 
G01 X15.9889 Y15.2922 
G01 X16.0162 Y15.3331 
G01 X16.0822 Y15.4925 
G01 X16.1159 Y15.6617 
G01 X16.1159 Y17.3583 
G01 X16.0822 Y17.5275 
G01 X16.0162 Y17.6869 
G01 X15.9204 Y17.8304 
G01 X15.7984 Y17.9524 
G01 X15.6549 Y18.0482 
G01 X15.4955 Y18.1142 
G01 X15.3263 Y18.1479 
G01 X15.1537 Y18.1479 
G01 X14.9845 Y18.1142 
G01 X14.8251 Y18.0482 
G01 X14.6816 Y17.9524 
G01 X14.5596 Y17.8304 
G01 X14.4638 Y17.6869 
G01 X14.3978 Y17.5275 
G01 X14.3641 Y17.3583 
G01 X14.3641 Y15.6617 
G01 X14.3978 Y15.4925 
G01 X14.4638 Y15.3331 
G01 X14.4911 Y15.2922 
G01 X14.4911 Y3.7578 
G01 X14.4638 Y3.7169 
G01 X14.3978 Y3.5575 
G01 X14.3641 Y3.3883 
G00 Z2.0000  F3000
G00 X16.9041 Y3.3883  F3000
G01 Z-0.2000 F200.00 
G01 X16.9041 Y1.6917 F500.00 
G01 X16.9378 Y1.5225 
G01 X17.0038 Y1.3631 
G01 X17.0996 Y1.2196 
G01 X17.2216 Y1.0976 
G01 X17.3651 Y1.0018 
G01 X17.5245 Y0.9358 
G01 X17.6937 Y0.9021 
G01 X17.8663 Y0.9021 
G01 X18.0355 Y0.9358 
G01 X18.1949 Y1.0018 
G01 X18.3384 Y1.0976 
G01 X18.4604 Y1.2196 
G01 X18.5562 Y1.3631 
G01 X18.6222 Y1.5225 
G01 X18.6559 Y1.6917 
G01 X18.6559 Y3.3883 
G01 X18.6222 Y3.5575 
G01 X18.5562 Y3.7169 
G01 X18.5289 Y3.7578 
G01 X18.5289 Y15.2922 
G01 X18.5562 Y15.3331 
G01 X18.6222 Y15.4925 
G01 X18.6559 Y15.6617 
G01 X18.6559 Y17.3583 
G01 X18.6222 Y17.5275 
G01 X18.5562 Y17.6869 
G01 X18.4604 Y17.8304 
G01 X18.3384 Y17.9524 
G01 X18.1949 Y18.0482 
G01 X18.0355 Y18.1142 
G01 X17.8663 Y18.1479 
G01 X17.6937 Y18.1479 
G01 X17.5245 Y18.1142 
G01 X17.3651 Y18.0482 
G01 X17.2216 Y17.9524 
G01 X17.0996 Y17.8304 
G01 X17.0038 Y17.6869 
G01 X16.9378 Y17.5275 
G01 X16.9041 Y17.3583 
G01 X16.9041 Y15.6617 
G01 X16.9378 Y15.4925 
G01 X17.0038 Y15.3331 
G01 X17.0311 Y15.2922 
G01 X17.0311 Y3.7578 
G01 X17.0038 Y3.7169 
G01 X16.9378 Y3.5575 
G01 X16.9041 Y3.3883 
G00 Z2.0000  F3000
G00 X10.9745 Y6.5534  F3000
G01 Z-0.2000 F200.00 
G01 X11.0066 Y6.5855 F500.00 
G01 X11.0239 Y6.6273 
G01 X11.0239 Y7.9727 
G01 X11.0066 Y8.0145 
G01 X10.9745 Y8.0466 
G01 X10.9327 Y8.0639 
G01 X10.7389 Y8.0639 
G01 X10.7389 Y8.7372 
G01 X10.7539 Y8.7734 
G01 X10.7539 Y9.6466 
G01 X10.7297 Y9.7050 
G01 X10.6850 Y9.7497 
G01 X10.6266 Y9.7739 
G01 X10.4852 Y9.7739 
G01 X10.4674 Y9.7917 
G01 X10.3447 Y9.8737 
G01 X10.2084 Y9.9301 
G01 X10.0638 Y9.9589 
G01 X9.9162 Y9.9589 
G01 X9.7716 Y9.9301 
G01 X9.6353 Y9.8737 
G01 X9.5126 Y9.7917 
G01 X9.4948 Y9.7739 
G01 X9.3534 Y9.7739 
G01 X9.2950 Y9.7497 
G01 X9.2503 Y9.7050 
G01 X9.2261 Y9.6466 
G01 X9.2261 Y8.7734 
G01 X9.2411 Y8.7372 
G01 X9.2411 Y7.3962 
G01 X9.2699 Y7.2516 
G01 X9.2961 Y7.1883 
G01 X9.2961 Y6.6273 
G01 X9.3134 Y6.5855 
G01 X9.3455 Y6.5534 
G01 X9.3873 Y6.5361 
G01 X10.9327 Y6.5361 
G01 X10.9745 Y6.5534 
G00 Z2.0000  F3000
G00 X9.5252 Y10.5199  F3000
G01 Z-0.2000 F200.00 
G01 X9.3606 Y10.5199 F500.00 
G01 X9.3135 Y10.5325 
G01 X9.2713 Y10.5569 
G01 X9.2369 Y10.5913 
G01 X9.2125 Y10.6335 
G01 X9.1999 Y10.6806 
G01 X9.1999 Y10.9961 
G01 X9.2261 Y10.9961 
G01 X9.2261 Y10.6734 
G01 X9.2503 Y10.6150 
G01 X9.2950 Y10.5703 
G01 X9.3534 Y10.5461 
G01 X9.4948 Y10.5461 
G01 X9.5126 Y10.5283 
G01 X9.5252 Y10.5199 
G00 Z2.0000  F3000
G00 X9.2261 Y11.2239  F3000
G01 Z-0.2000 F200.00 
G01 X9.1999 Y11.2239 F500.00 
G01 X9.1999 Y11.5394 
G01 X9.2125 Y11.5864 
G01 X9.2369 Y11.6287 
G01 X9.2713 Y11.6631 
G01 X9.3135 Y11.6875 
G01 X9.3606 Y11.7001 
G01 X9.5252 Y11.7001 
G01 X9.5126 Y11.6917 
G01 X9.4948 Y11.6739 
G01 X9.3534 Y11.6739 
G01 X9.2950 Y11.6497 
G01 X9.2503 Y11.6050 
G01 X9.2261 Y11.5466 
G01 X9.2261 Y11.2239 
G00 Z2.0000  F3000
G00 X8.4927 Y10.8009  F3000
G01 Z-0.2000 F200.00 
G01 X8.6309 Y10.6627 F500.00 
G01 X8.6309 Y9.6573 
G01 X8.4927 Y9.5191 
G01 X8.3416 Y9.5191 
G01 X8.2998 Y9.5017 
G01 X8.2677 Y9.4697 
G01 X8.1778 Y9.3798 
G01 X7.8743 Y9.2541 
G01 X6.6142 Y9.2541 
G01 X6.5723 Y9.2367 
G01 X6.5403 Y9.2047 
G01 X6.5229 Y9.1628 
G01 X6.5229 Y9.1284 
G01 X6.3778 Y8.7782 
G01 X6.1098 Y8.5101 
G01 X5.7595 Y8.3651 
G01 X5.3804 Y8.3651 
G01 X5.0302 Y8.5101 
G01 X4.7622 Y8.7782 
G01 X4.6171 Y9.1284 
G01 X4.6171 Y11.0315 
G01 X4.7622 Y11.3818 
G01 X5.0302 Y11.6498 
G01 X5.3804 Y11.7949 
G01 X5.7595 Y11.7949 
G01 X6.1098 Y11.6498 
G01 X6.3778 Y11.3818 
G01 X6.5229 Y11.0315 
G01 X6.5229 Y10.9972 
G01 X6.5403 Y10.9553 
G01 X6.5723 Y10.9233 
G01 X6.6142 Y10.9059 
G01 X7.4326 Y10.9059 
G01 X7.4355 Y10.9071 
G01 X7.6257 Y10.9859 
G01 X7.9543 Y10.9859 
G01 X8.2578 Y10.8602 
G01 X8.2677 Y10.8503 
G01 X8.2747 Y10.8433 
G01 X8.2998 Y10.8183 
G01 X8.3416 Y10.8009 
G01 X8.4927 Y10.8009 
G00 Z2.0000  F3000
G00 X8.4850 Y10.6997  F3000
G01 Z-0.2000 F200.00 
G01 X8.4266 Y10.7239 F500.00 
G01 X8.2852 Y10.7239 
G01 X8.2674 Y10.7417 
G01 X8.1447 Y10.8237 
G01 X8.0084 Y10.8801 
G01 X7.8638 Y10.9089 
G01 X7.7162 Y10.9089 
G01 X7.5716 Y10.8801 
G01 X7.4479 Y10.8289 
G01 X6.4459 Y10.8289 
G01 X6.4459 Y10.9283 
G01 X6.4122 Y11.0975 
G01 X6.3462 Y11.2569 
G01 X6.2504 Y11.4004 
G01 X6.1284 Y11.5224 
G01 X5.9849 Y11.6182 
G01 X5.8255 Y11.6842 
G01 X5.6563 Y11.7179 
G01 X5.4837 Y11.7179 
G01 X5.3145 Y11.6842 
G01 X5.1551 Y11.6182 
G01 X5.0116 Y11.5224 
G01 X4.8896 Y11.4004 
G01 X4.7938 Y11.2569 
G01 X4.7278 Y11.0975 
G01 X4.6941 Y10.9283 
G01 X4.6941 Y9.2317 
G01 X4.7278 Y9.0625 
G01 X4.7938 Y8.9031 
G01 X4.8896 Y8.7596 
G01 X5.0116 Y8.6376 
G01 X5.1551 Y8.5418 
G01 X5.3145 Y8.4758 
G01 X5.4837 Y8.4421 
G01 X5.6563 Y8.4421 
G01 X5.8255 Y8.4758 
G01 X5.9849 Y8.5418 
G01 X6.1284 Y8.6376 
G01 X6.2504 Y8.7596 
G01 X6.3462 Y8.9031 
G01 X6.4122 Y9.0625 
G01 X6.4459 Y9.2317 
G01 X6.4459 Y9.3311 
G01 X7.7838 Y9.3311 
G01 X7.9284 Y9.3599 
G01 X8.0647 Y9.4163 
G01 X8.1874 Y9.4983 
G01 X8.2852 Y9.5961 
G01 X8.4266 Y9.5961 
G01 X8.4850 Y9.6203 
G01 X8.5297 Y9.6650 
G01 X8.5539 Y9.7234 
G01 X8.5539 Y10.5966 
G01 X8.5297 Y10.6550 
G01 X8.4850 Y10.6997 
G00 Z2.0000  F3000
G00 X11.9511 Y15.2450  F3000
G01 Z-0.2000 F200.00 
G01 X11.9005 Y15.3207 F500.00 
G01 X11.8325 Y15.4849 
G01 X11.7979 Y15.6591 
G01 X11.7979 Y16.3961 
G01 X11.8241 Y16.3961 
G01 X11.8241 Y15.6617 
G01 X11.8578 Y15.4925 
G01 X11.9238 Y15.3331 
G01 X11.9511 Y15.2922 
G01 X11.9511 Y15.2450 
G00 Z2.0000  F3000
G00 X13.4489 Y15.2450  F3000
G01 Z-0.2000 F200.00 
G01 X13.4489 Y15.2922 F500.00 
G01 X13.4762 Y15.3331 
G01 X13.5422 Y15.4925 
G01 X13.5759 Y15.6617 
G01 X13.5759 Y16.3961 
G01 X13.6021 Y16.3961 
G01 X13.6021 Y15.6591 
G01 X13.5674 Y15.4849 
G01 X13.4994 Y15.3207 
G01 X13.4489 Y15.2450 
G00 Z2.0000  F3000
G00 X6.8775 Y1.1686  F3000
G01 Z-0.2000 F200.00 
G01 X7.0106 Y1.0355 F500.00 
G01 X7.1672 Y0.9309 
G01 X7.3412 Y0.8588 
G01 X7.5259 Y0.8221 
G01 X7.7141 Y0.8221 
G01 X7.8988 Y0.8588 
G01 X8.0728 Y0.9309 
G01 X8.1728 Y0.9977 
G01 X8.1728 Y0.9774 
G01 X8.2023 Y0.9062 
G01 X8.2560 Y0.8525 
G01 X8.3281 Y0.8221 
G01 X9.4518 Y0.8221 
G01 X9.5211 Y0.8508 
G01 X9.5231 Y0.8516 
G01 X9.5777 Y0.9062 
G01 X9.6072 Y0.9774 
G01 X9.6072 Y0.9977 
G01 X9.7072 Y0.9309 
G01 X9.8812 Y0.8588 
G01 X10.0658 Y0.8221 
G01 X10.2541 Y0.8221 
G01 X10.4388 Y0.8588 
G01 X10.6128 Y0.9309 
G01 X10.7128 Y0.9977 
G01 X10.7128 Y0.9774 
G01 X10.7423 Y0.9062 
G01 X10.7960 Y0.8525 
G01 X10.8681 Y0.8221 
G01 X12.0637 Y0.8221 
G01 X12.0924 Y0.8340 
G01 X12.1350 Y0.8516 
G01 X12.1895 Y0.9062 
G01 X12.2100 Y0.9557 
G01 X12.2472 Y0.9309 
G01 X12.4212 Y0.8588 
G01 X12.6059 Y0.8221 
G01 X12.7941 Y0.8221 
G01 X12.9788 Y0.8588 
G01 X13.1528 Y0.9309 
G01 X13.1900 Y0.9557 
G01 X13.2105 Y0.9062 
G01 X13.2642 Y0.8525 
G01 X13.3059 Y0.8347 
G01 X13.3363 Y0.8221 
G01 X14.5318 Y0.8221 
G01 X14.6011 Y0.8508 
G01 X14.6031 Y0.8516 
G01 X14.6577 Y0.9062 
G01 X14.6872 Y0.9774 
G01 X14.6872 Y0.9977 
G01 X14.7872 Y0.9309 
G01 X14.9612 Y0.8588 
G01 X15.1458 Y0.8221 
G01 X15.3341 Y0.8221 
G01 X15.5188 Y0.8588 
G01 X15.6928 Y0.9309 
G01 X15.8493 Y1.0355 
G01 X15.9825 Y1.1686 
G01 X16.0871 Y1.3252 
G01 X16.1592 Y1.4992 
G01 X16.1959 Y1.6839 
G01 X16.1959 Y3.3961 
G01 X16.1592 Y3.5808 
G01 X16.0871 Y3.7548 
G01 X16.0689 Y3.7820 
G01 X16.0689 Y15.2680 
G01 X16.0871 Y15.2952 
G01 X16.1592 Y15.4692 
G01 X16.1959 Y15.6539 
G01 X16.1959 Y17.3661 
G01 X16.1592 Y17.5508 
G01 X16.0871 Y17.7248 
G01 X15.9825 Y17.8814 
G01 X15.8493 Y18.0145 
G01 X15.6928 Y18.1191 
G01 X15.5188 Y18.1912 
G01 X15.3341 Y18.2279 
G01 X15.1458 Y18.2279 
G01 X14.9612 Y18.1912 
G01 X14.7872 Y18.1191 
G01 X14.6306 Y18.0145 
G01 X14.4975 Y17.8814 
G01 X14.3946 Y17.7273 
G01 X14.3937 Y17.7295 
G01 X14.3661 Y17.7571 
G01 X14.3391 Y17.7841 
G01 X14.3031 Y17.7990 
G01 X14.2679 Y17.8136 
G01 X14.2288 Y17.8136 
G01 X14.1907 Y17.8136 
G01 X13.6558 Y17.8122 
G01 X13.6177 Y17.8122 
G01 X13.5814 Y17.7971 
G01 X13.5465 Y17.7826 
G01 X13.5237 Y17.7599 
G01 X13.4425 Y17.8814 
G01 X13.3094 Y18.0145 
G01 X13.1528 Y18.1191 
G01 X12.9788 Y18.1912 
G01 X12.7941 Y18.2279 
G01 X12.6059 Y18.2279 
G01 X12.4212 Y18.1912 
G01 X12.2472 Y18.1191 
G01 X12.0906 Y18.0145 
G01 X11.9575 Y17.8814 
G01 X11.8736 Y17.7558 
G01 X11.8515 Y17.7778 
G01 X11.8155 Y17.7927 
G01 X11.7803 Y17.8073 
G01 X11.7412 Y17.8073 
G01 X11.7031 Y17.8073 
G01 X11.1734 Y17.8059 
G01 X11.1353 Y17.8059 
G01 X11.0990 Y17.7909 
G01 X11.0640 Y17.7764 
G01 X11.0361 Y17.7485 
G01 X11.0095 Y17.7219 
G01 X11.0071 Y17.7248 
G01 X10.9025 Y17.8814 
G01 X10.7693 Y18.0145 
G01 X10.6128 Y18.1191 
G01 X10.4388 Y18.1912 
G01 X10.2541 Y18.2279 
G01 X10.0658 Y18.2279 
G01 X9.8812 Y18.1912 
G01 X9.7072 Y18.1191 
G01 X9.5506 Y18.0145 
G01 X9.4175 Y17.8814 
G01 X9.3129 Y17.7248 
G01 X9.2408 Y17.5508 
G01 X9.2041 Y17.3661 
G01 X9.2041 Y16.7263 
G01 X6.6417 Y14.1639 
G01 X3.7284 Y14.1639 
G01 X3.5682 Y14.1320 
G01 X3.4174 Y14.0696 
G01 X3.2816 Y13.9788 
G01 X3.1662 Y13.8634 
G01 X2.3862 Y13.0834 
G01 X2.2954 Y12.9476 
G01 X2.2330 Y12.7968 
G01 X2.2011 Y12.6366 
G01 X2.2011 Y11.3220 
G01 X2.1829 Y11.2948 
G01 X2.1108 Y11.1208 
G01 X2.0741 Y10.9361 
G01 X2.0741 Y9.2239 
G01 X2.1108 Y9.0392 
G01 X2.1829 Y8.8652 
G01 X2.2875 Y8.7086 
G01 X2.3461 Y8.6501 
G01 X2.3461 Y6.2684 
G01 X2.3780 Y6.1082 
G01 X2.4404 Y5.9574 
G01 X2.5311 Y5.8216 
G01 X2.6466 Y5.7062 
G01 X2.7824 Y5.6154 
G01 X2.9332 Y5.5530 
G01 X3.0934 Y5.5211 
G01 X6.0067 Y5.5211 
G01 X6.7911 Y4.7367 
G01 X6.7911 Y3.7820 
G01 X6.7729 Y3.7548 
G01 X6.7008 Y3.5808 
G01 X6.6641 Y3.3961 
G01 X6.6641 Y1.6839 
G01 X6.7008 Y1.4992 
G01 X6.7729 Y1.3252 
G01 X6.8775 Y1.1686 
G00 Z2.0000  F3000
G00 X9.4448 Y6.2439  F3000
G01 Z-0.2000 F200.00 
G01 X9.4728 Y6.3114 F500.00 
G01 X9.4728 Y6.3886 
G01 X9.4448 Y6.4561 
G01 X10.8751 Y6.4561 
G01 X10.8472 Y6.3886 
G01 X10.8472 Y6.3114 
G01 X10.8751 Y6.2439 
G01 X9.4448 Y6.2439 
G00 Z2.0000  F3000
G00 X16.9511 Y3.7820  F3000
G01 Z-0.2000 F200.00 
G01 X16.9329 Y3.7548 F500.00 
G01 X16.8608 Y3.5808 
G01 X16.8241 Y3.3961 
G01 X16.8241 Y1.6839 
G01 X16.8608 Y1.4992 
G01 X16.9329 Y1.3252 
G01 X17.0375 Y1.1686 
G01 X17.1706 Y1.0355 
G01 X17.3272 Y0.9309 
G01 X17.5012 Y0.8588 
G01 X17.6858 Y0.8221 
G01 X17.8741 Y0.8221 
G01 X18.0588 Y0.8588 
G01 X18.2328 Y0.9309 
G01 X18.3894 Y1.0355 
G01 X18.5225 Y1.1686 
G01 X18.6271 Y1.3252 
G01 X18.6992 Y1.4992 
G01 X18.7359 Y1.6839 
G01 X18.7359 Y3.3961 
G01 X18.6992 Y3.5808 
G01 X18.6271 Y3.7548 
G01 X18.6089 Y3.7820 
G01 X18.6089 Y15.2680 
G01 X18.6271 Y15.2952 
G01 X18.6992 Y15.4692 
G01 X18.7359 Y15.6539 
G01 X18.7359 Y17.3661 
G01 X18.6992 Y17.5508 
G01 X18.6271 Y17.7248 
G01 X18.5225 Y17.8814 
G01 X18.3894 Y18.0145 
G01 X18.2328 Y18.1191 
G01 X18.0588 Y18.1912 
G01 X17.8741 Y18.2279 
G01 X17.6858 Y18.2279 
G01 X17.5012 Y18.1912 
G01 X17.3272 Y18.1191 
G01 X17.1706 Y18.0145 
G01 X17.0375 Y17.8814 
G01 X16.9329 Y17.7248 
G01 X16.8608 Y17.5508 
G01 X16.8241 Y17.3661 
G01 X16.8241 Y15.6539 
G01 X16.8608 Y15.4692 
G01 X16.9329 Y15.2952 
G01 X16.9511 Y15.2680 
G01 X16.9511 Y3.7820 
G00 Z2.0000  F3000
G00 X6.8299 Y1.1032  F3000
G01 Z-0.2000 F200.00 
G01 X6.9452 Y0.9879 F500.00 
G01 X7.0771 Y0.8920 
G01 X7.2223 Y0.8180 
G01 X7.3774 Y0.7676 
G01 X7.5385 Y0.7421 
G01 X7.7015 Y0.7421 
G01 X7.8626 Y0.7676 
G01 X8.0176 Y0.8180 
G01 X8.1313 Y0.8759 
G01 X8.1475 Y0.8478 
G01 X8.1985 Y0.7968 
G01 X8.2610 Y0.7608 
G01 X8.3307 Y0.7421 
G01 X9.4493 Y0.7421 
G01 X9.5190 Y0.7608 
G01 X9.5801 Y0.7960 
G01 X9.6324 Y0.8478 
G01 X9.6487 Y0.8759 
G01 X9.7623 Y0.8180 
G01 X9.9174 Y0.7676 
G01 X10.0785 Y0.7421 
G01 X10.2415 Y0.7421 
G01 X10.4026 Y0.7676 
G01 X10.5576 Y0.8180 
G01 X10.6713 Y0.8759 
G01 X10.6875 Y0.8478 
G01 X10.7385 Y0.7968 
G01 X10.8010 Y0.7608 
G01 X10.8707 Y0.7421 
G01 X12.0612 Y0.7421 
G01 X12.1308 Y0.7608 
G01 X12.1639 Y0.7799 
G01 X12.1933 Y0.7968 
G01 X12.2441 Y0.8477 
G01 X12.3024 Y0.8180 
G01 X12.4574 Y0.7676 
G01 X12.6185 Y0.7421 
G01 X12.7815 Y0.7421 
G01 X12.9426 Y0.7676 
G01 X13.0976 Y0.8180 
G01 X13.1559 Y0.8477 
G01 X13.2067 Y0.7968 
G01 X13.2353 Y0.7803 
G01 X13.2691 Y0.7608 
G01 X13.3388 Y0.7421 
G01 X14.5293 Y0.7421 
G01 X14.5990 Y0.7608 
G01 X14.6601 Y0.7960 
G01 X14.7124 Y0.8478 
G01 X14.7287 Y0.8759 
G01 X14.8423 Y0.8180 
G01 X14.9974 Y0.7676 
G01 X15.1585 Y0.7421 
G01 X15.3215 Y0.7421 
G01 X15.4826 Y0.7676 
G01 X15.6376 Y0.8180 
G01 X15.7829 Y0.8920 
G01 X15.9148 Y0.9879 
G01 X16.0301 Y1.1032 
G01 X16.1260 Y1.2351 
G01 X16.2000 Y1.3803 
G01 X16.2504 Y1.5354 
G01 X16.2759 Y1.6965 
G01 X16.2759 Y3.3835 
G01 X16.2504 Y3.5446 
G01 X16.2000 Y3.6996 
G01 X16.1489 Y3.7999 
G01 X16.1489 Y15.2501 
G01 X16.2000 Y15.3504 
G01 X16.2504 Y15.5054 
G01 X16.2759 Y15.6665 
G01 X16.2759 Y17.3535 
G01 X16.2504 Y17.5146 
G01 X16.2000 Y17.6696 
G01 X16.1260 Y17.8149 
G01 X16.0301 Y17.9468 
G01 X15.9148 Y18.0621 
G01 X15.7829 Y18.1580 
G01 X15.6376 Y18.2320 
G01 X15.4826 Y18.2824 
G01 X15.3215 Y18.3079 
G01 X15.1585 Y18.3079 
G01 X14.9974 Y18.2824 
G01 X14.8423 Y18.2320 
G01 X14.6971 Y18.1580 
G01 X14.5652 Y18.0621 
G01 X14.4499 Y17.9468 
G01 X14.3794 Y17.8498 
G01 X14.3674 Y17.8589 
G01 X14.3504 Y17.8660 
G01 X14.3344 Y17.8752 
G01 X14.3172 Y17.8797 
G01 X14.3008 Y17.8865 
G01 X14.2825 Y17.8889 
G01 X14.2647 Y17.8937 
G01 X14.2469 Y17.8936 
G01 X14.2293 Y17.8960 
G01 X14.2110 Y17.8935 
G01 X13.6739 Y17.8922 
G01 X13.6563 Y17.8945 
G01 X13.6380 Y17.8921 
G01 X13.6196 Y17.8921 
G01 X13.6024 Y17.8874 
G01 X13.5848 Y17.8851 
G01 X13.5677 Y17.8780 
G01 X13.5499 Y17.8732 
G01 X13.5455 Y17.8706 
G01 X13.4901 Y17.9468 
G01 X13.3748 Y18.0621 
G01 X13.2429 Y18.1580 
G01 X13.0976 Y18.2320 
G01 X12.9426 Y18.2824 
G01 X12.7815 Y18.3079 
G01 X12.6185 Y18.3079 
G01 X12.4574 Y18.2824 
G01 X12.3024 Y18.2320 
G01 X12.1571 Y18.1580 
G01 X12.0252 Y18.0621 
G01 X11.9099 Y17.9468 
G01 X11.8514 Y17.8663 
G01 X11.8468 Y17.8689 
G01 X11.8296 Y17.8735 
G01 X11.8132 Y17.8803 
G01 X11.7949 Y17.8827 
G01 X11.7771 Y17.8874 
G01 X11.7593 Y17.8874 
G01 X11.7417 Y17.8897 
G01 X11.7234 Y17.8873 
G01 X11.1915 Y17.8860 
G01 X11.1739 Y17.8883 
G01 X11.1556 Y17.8859 
G01 X11.1371 Y17.8858 
G01 X11.1200 Y17.8812 
G01 X11.1024 Y17.8789 
G01 X11.0853 Y17.8718 
G01 X11.0675 Y17.8670 
G01 X11.0521 Y17.8581 
G01 X11.0357 Y17.8513 
G01 X11.0254 Y17.8433 
G01 X10.9501 Y17.9468 
G01 X10.8348 Y18.0621 
G01 X10.7029 Y18.1580 
G01 X10.5576 Y18.2320 
G01 X10.4026 Y18.2824 
G01 X10.2415 Y18.3079 
G01 X10.0785 Y18.3079 
G01 X9.9174 Y18.2824 
G01 X9.7623 Y18.2320 
G01 X9.6171 Y18.1580 
G01 X9.4852 Y18.0621 
G01 X9.3699 Y17.9468 
G01 X9.2740 Y17.8149 
G01 X9.2000 Y17.6696 
G01 X9.1496 Y17.5146 
G01 X9.1241 Y17.3535 
G01 X9.1241 Y16.7595 
G01 X6.6085 Y14.2439 
G01 X3.7205 Y14.2439 
G01 X3.5449 Y14.2090 
G01 X3.3795 Y14.1405 
G01 X3.2306 Y14.0410 
G01 X3.1040 Y13.9144 
G01 X2.3240 Y13.1344 
G01 X2.2245 Y12.9855 
G01 X2.1560 Y12.8201 
G01 X2.1211 Y12.6445 
G01 X2.1211 Y11.3399 
G01 X2.0700 Y11.2396 
G01 X2.0196 Y11.0846 
G01 X1.9941 Y10.9235 
G01 X1.9941 Y9.2365 
G01 X2.0196 Y9.0754 
G01 X2.0700 Y8.9203 
G01 X2.1440 Y8.7751 
G01 X2.2399 Y8.6432 
G01 X2.2661 Y8.6169 
G01 X2.2661 Y6.2605 
G01 X2.3010 Y6.0849 
G01 X2.3695 Y5.9195 
G01 X2.4690 Y5.7706 
G01 X2.5956 Y5.6440 
G01 X2.7445 Y5.5445 
G01 X2.9099 Y5.4760 
G01 X3.0855 Y5.4411 
G01 X5.9735 Y5.4411 
G01 X6.7111 Y4.7035 
G01 X6.7111 Y3.7999 
G01 X6.6600 Y3.6996 
G01 X6.6096 Y3.5446 
G01 X6.5841 Y3.3835 
G01 X6.5841 Y1.6965 
G01 X6.6096 Y1.5354 
G01 X6.6600 Y1.3803 
G01 X6.7340 Y1.2351 
G01 X6.8299 Y1.1032 
G00 Z2.0000  F3000
G00 X9.5528 Y6.3239  F3000
G01 Z-0.2000 F200.00 
G01 X9.5528 Y6.3761 F500.00 
G01 X10.7672 Y6.3761 
G01 X10.7672 Y6.3239 
G01 X9.5528 Y6.3239 
G00 Z2.0000  F3000
G00 X16.8711 Y3.7999  F3000
G01 Z-0.2000 F200.00 
G01 X16.8200 Y3.6996 F500.00 
G01 X16.7696 Y3.5446 
G01 X16.7441 Y3.3835 
G01 X16.7441 Y1.6965 
G01 X16.7696 Y1.5354 
G01 X16.8200 Y1.3803 
G01 X16.8940 Y1.2351 
G01 X16.9899 Y1.1032 
G01 X17.1052 Y0.9879 
G01 X17.2371 Y0.8920 
G01 X17.3823 Y0.8180 
G01 X17.5374 Y0.7676 
G01 X17.6985 Y0.7421 
G01 X17.8615 Y0.7421 
G01 X18.0226 Y0.7676 
G01 X18.1776 Y0.8180 
G01 X18.3229 Y0.8920 
G01 X18.4548 Y0.9879 
G01 X18.5701 Y1.1032 
G01 X18.6660 Y1.2351 
G01 X18.7400 Y1.3803 
G01 X18.7904 Y1.5354 
G01 X18.8159 Y1.6965 
G01 X18.8159 Y3.3835 
G01 X18.7904 Y3.5446 
G01 X18.7400 Y3.6996 
G01 X18.6889 Y3.7999 
G01 X18.6889 Y15.2501 
G01 X18.7400 Y15.3504 
G01 X18.7904 Y15.5054 
G01 X18.8159 Y15.6665 
G01 X18.8159 Y17.3535 
G01 X18.7904 Y17.5146 
G01 X18.7400 Y17.6696 
G01 X18.6660 Y17.8149 
G01 X18.5701 Y17.9468 
G01 X18.4548 Y18.0621 
G01 X18.3229 Y18.1580 
G01 X18.1776 Y18.2320 
G01 X18.0226 Y18.2824 
G01 X17.8615 Y18.3079 
G01 X17.6985 Y18.3079 
G01 X17.5374 Y18.2824 
G01 X17.3823 Y18.2320 
G01 X17.2371 Y18.1580 
G01 X17.1052 Y18.0621 
G01 X16.9899 Y17.9468 
G01 X16.8940 Y17.8149 
G01 X16.8200 Y17.6696 
G01 X16.7696 Y17.5146 
G01 X16.7441 Y17.3535 
G01 X16.7441 Y15.6665 
G01 X16.7696 Y15.5054 
G01 X16.8200 Y15.3504 
G01 X16.8711 Y15.2501 
G01 X16.8711 Y3.7999 
G00 Z2.0000  F3000
G00 X6.7688 Y1.0510  F3000
G01 Z-0.2000 F200.00 
G01 X6.8930 Y0.9268 F500.00 
G01 X7.0351 Y0.8236 
G01 X7.1916 Y0.7439 
G01 X7.3587 Y0.6896 
G01 X7.5322 Y0.6621 
G01 X7.7078 Y0.6621 
G01 X7.8813 Y0.6896 
G01 X8.0484 Y0.7439 
G01 X8.1080 Y0.7742 
G01 X8.1494 Y0.7328 
G01 X8.1825 Y0.7137 
G01 X8.2301 Y0.6862 
G01 X8.3201 Y0.6621 
G01 X9.4599 Y0.6621 
G01 X9.5499 Y0.6862 
G01 X9.5954 Y0.7125 
G01 X9.6306 Y0.7328 
G01 X9.6720 Y0.7742 
G01 X9.7316 Y0.7439 
G01 X9.8987 Y0.6896 
G01 X10.0722 Y0.6621 
G01 X10.2478 Y0.6621 
G01 X10.4213 Y0.6896 
G01 X10.5884 Y0.7439 
G01 X10.6480 Y0.7742 
G01 X10.6894 Y0.7328 
G01 X10.7225 Y0.7137 
G01 X10.7701 Y0.6862 
G01 X10.8601 Y0.6621 
G01 X12.0717 Y0.6621 
G01 X12.1617 Y0.6862 
G01 X12.2424 Y0.7328 
G01 X12.2596 Y0.7500 
G01 X12.2716 Y0.7439 
G01 X12.4387 Y0.6896 
G01 X12.6122 Y0.6621 
G01 X12.7878 Y0.6621 
G01 X12.9613 Y0.6896 
G01 X13.1284 Y0.7439 
G01 X13.1404 Y0.7500 
G01 X13.1576 Y0.7328 
G01 X13.2383 Y0.6862 
G01 X13.3283 Y0.6621 
G01 X14.5399 Y0.6621 
G01 X14.6299 Y0.6862 
G01 X14.6754 Y0.7125 
G01 X14.7106 Y0.7328 
G01 X14.7520 Y0.7742 
G01 X14.8116 Y0.7439 
G01 X14.9787 Y0.6896 
G01 X15.1522 Y0.6621 
G01 X15.3278 Y0.6621 
G01 X15.5013 Y0.6896 
G01 X15.6684 Y0.7439 
G01 X15.8249 Y0.8236 
G01 X15.9670 Y0.9268 
G01 X16.0912 Y1.0510 
G01 X16.1944 Y1.1931 
G01 X16.2741 Y1.3496 
G01 X16.3284 Y1.5167 
G01 X16.3559 Y1.6902 
G01 X16.3559 Y3.3898 
G01 X16.3284 Y3.5633 
G01 X16.2741 Y3.7304 
G01 X16.2289 Y3.8192 
G01 X16.2289 Y15.2308 
G01 X16.2741 Y15.3196 
G01 X16.3284 Y15.4867 
G01 X16.3559 Y15.6602 
G01 X16.3559 Y17.3598 
G01 X16.3284 Y17.5333 
G01 X16.2741 Y17.7004 
G01 X16.1944 Y17.8569 
G01 X16.0912 Y17.9990 
G01 X15.9670 Y18.1232 
G01 X15.8249 Y18.2264 
G01 X15.6684 Y18.3061 
G01 X15.5013 Y18.3604 
G01 X15.3278 Y18.3879 
G01 X15.1522 Y18.3879 
G01 X14.9787 Y18.3604 
G01 X14.8116 Y18.3061 
G01 X14.6551 Y18.2264 
G01 X14.5130 Y18.1232 
G01 X14.3888 Y17.9990 
G01 X14.3551 Y17.9525 
G01 X14.3429 Y17.9557 
G01 X14.3217 Y17.9645 
G01 X14.2980 Y17.9676 
G01 X14.2750 Y17.9737 
G01 X14.2521 Y17.9736 
G01 X14.2293 Y17.9766 
G01 X14.2057 Y17.9735 
G01 X13.6791 Y17.9722 
G01 X13.6563 Y17.9752 
G01 X13.6327 Y17.9721 
G01 X13.6088 Y17.9720 
G01 X13.5867 Y17.9660 
G01 X13.5761 Y17.9646 
G01 X13.5512 Y17.9990 
G01 X13.4270 Y18.1232 
G01 X13.2849 Y18.2264 
G01 X13.1284 Y18.3061 
G01 X12.9613 Y18.3604 
G01 X12.7878 Y18.3879 
G01 X12.6122 Y18.3879 
G01 X12.4387 Y18.3604 
G01 X12.2716 Y18.3061 
G01 X12.1151 Y18.2264 
G01 X11.9730 Y18.1232 
G01 X11.8488 Y17.9990 
G01 X11.8206 Y17.9600 
G01 X11.8104 Y17.9613 
G01 X11.7874 Y17.9675 
G01 X11.7645 Y17.9674 
G01 X11.7417 Y17.9704 
G01 X11.7181 Y17.9673 
G01 X11.1966 Y17.9660 
G01 X11.1739 Y17.9690 
G01 X11.1502 Y17.9659 
G01 X11.1264 Y17.9658 
G01 X11.1042 Y17.9598 
G01 X11.0815 Y17.9568 
G01 X11.0594 Y17.9477 
G01 X11.0502 Y17.9452 
G01 X11.0112 Y17.9990 
G01 X10.8870 Y18.1232 
G01 X10.7449 Y18.2264 
G01 X10.5884 Y18.3061 
G01 X10.4213 Y18.3604 
G01 X10.2478 Y18.3879 
G01 X10.0722 Y18.3879 
G01 X9.8987 Y18.3604 
G01 X9.7316 Y18.3061 
G01 X9.5751 Y18.2264 
G01 X9.4330 Y18.1232 
G01 X9.3088 Y17.9990 
G01 X9.2056 Y17.8569 
G01 X9.1259 Y17.7004 
G01 X9.0716 Y17.5333 
G01 X9.0441 Y17.3598 
G01 X9.0441 Y16.7926 
G01 X6.5754 Y14.3239 
G01 X3.7126 Y14.3239 
G01 X3.5215 Y14.2859 
G01 X3.3416 Y14.2113 
G01 X3.1796 Y14.1031 
G01 X3.0419 Y13.9654 
G01 X2.2619 Y13.1854 
G01 X2.1536 Y13.0234 
G01 X2.0791 Y12.8435 
G01 X2.0411 Y12.6524 
G01 X2.0411 Y11.3592 
G01 X1.9959 Y11.2704 
G01 X1.9416 Y11.1033 
G01 X1.9141 Y10.9298 
G01 X1.9141 Y9.2302 
G01 X1.9416 Y9.0567 
G01 X1.9959 Y8.8896 
G01 X2.0756 Y8.7331 
G01 X2.1788 Y8.5910 
G01 X2.1861 Y8.5838 
G01 X2.1861 Y6.2526 
G01 X2.2241 Y6.0615 
G01 X2.2986 Y5.8816 
G01 X2.4069 Y5.7196 
G01 X2.5446 Y5.5819 
G01 X2.7066 Y5.4736 
G01 X2.8865 Y5.3991 
G01 X3.0776 Y5.3611 
G01 X5.9404 Y5.3611 
G01 X6.6311 Y4.6704 
G01 X6.6311 Y3.8192 
G01 X6.5859 Y3.7304 
G01 X6.5316 Y3.5633 
G01 X6.5041 Y3.3898 
G01 X6.5041 Y1.6902 
G01 X6.5316 Y1.5167 
G01 X6.5859 Y1.3496 
G01 X6.6656 Y1.1931 
G01 X6.7688 Y1.0510 
G00 Z2.0000  F3000
G00 X16.9288 Y1.0510  F3000
G01 Z-0.2000 F200.00 
G01 X17.0530 Y0.9268 F500.00 
G01 X17.1951 Y0.8236 
G01 X17.3516 Y0.7439 
G01 X17.5187 Y0.6896 
G01 X17.6922 Y0.6621 
G01 X17.8678 Y0.6621 
G01 X18.0413 Y0.6896 
G01 X18.2084 Y0.7439 
G01 X18.3649 Y0.8236 
G01 X18.5070 Y0.9268 
G01 X18.6312 Y1.0510 
G01 X18.7344 Y1.1931 
G01 X18.8141 Y1.3496 
G01 X18.8684 Y1.5167 
G01 X18.8959 Y1.6902 
G01 X18.8959 Y3.3898 
G01 X18.8684 Y3.5633 
G01 X18.8141 Y3.7304 
G01 X18.7689 Y3.8192 
G01 X18.7689 Y15.2308 
G01 X18.8141 Y15.3196 
G01 X18.8684 Y15.4867 
G01 X18.8959 Y15.6602 
G01 X18.8959 Y17.3598 
G01 X18.8684 Y17.5333 
G01 X18.8141 Y17.7004 
G01 X18.7344 Y17.8569 
G01 X18.6312 Y17.9990 
G01 X18.5070 Y18.1232 
G01 X18.3649 Y18.2264 
G01 X18.2084 Y18.3061 
G01 X18.0413 Y18.3604 
G01 X17.8678 Y18.3879 
G01 X17.6922 Y18.3879 
G01 X17.5187 Y18.3604 
G01 X17.3516 Y18.3061 
G01 X17.1951 Y18.2264 
G01 X17.0530 Y18.1232 
G01 X16.9288 Y17.9990 
G01 X16.8256 Y17.8569 
G01 X16.7459 Y17.7004 
G01 X16.6916 Y17.5333 
G01 X16.6641 Y17.3598 
G01 X16.6641 Y15.6602 
G01 X16.6916 Y15.4867 
G01 X16.7459 Y15.3196 
G01 X16.7911 Y15.2308 
G01 X16.7911 Y3.8192 
G01 X16.7459 Y3.7304 
G01 X16.6916 Y3.5633 
G01 X16.6641 Y3.3898 
G01 X16.6641 Y1.6902 
G01 X16.6916 Y1.5167 
G01 X16.7459 Y1.3496 
G01 X16.8256 Y1.1931 
G01 X16.9288 Y1.0510 
G00 Z2.0000  F3000
G00 X6.7078 Y0.9989  F3000
G01 Z-0.2000 F200.00 
G01 X6.8409 Y0.8658 F500.00 
G01 X6.9932 Y0.7552 
G01 X7.1609 Y0.6697 
G01 X7.3400 Y0.6115 
G01 X7.5259 Y0.5821 
G01 X7.7141 Y0.5821 
G01 X7.9000 Y0.6115 
G01 X8.0791 Y0.6697 
G01 X8.0925 Y0.6766 
G01 X8.1003 Y0.6688 
G01 X8.1992 Y0.6117 
G01 X8.2788 Y0.5904 
G01 X8.3096 Y0.5821 
G01 X9.4704 Y0.5821 
G01 X9.4987 Y0.5897 
G01 X9.5808 Y0.6117 
G01 X9.6797 Y0.6688 
G01 X9.6875 Y0.6766 
G01 X9.7009 Y0.6697 
G01 X9.8800 Y0.6115 
G01 X10.0659 Y0.5821 
G01 X10.2541 Y0.5821 
G01 X10.4400 Y0.6115 
G01 X10.6191 Y0.6697 
G01 X10.6325 Y0.6766 
G01 X10.6403 Y0.6688 
G01 X10.7392 Y0.6117 
G01 X10.8188 Y0.5904 
G01 X10.8496 Y0.5821 
G01 X12.0822 Y0.5821 
G01 X12.1209 Y0.5925 
G01 X12.1926 Y0.6117 
G01 X12.2743 Y0.6589 
G01 X12.4200 Y0.6115 
G01 X12.6059 Y0.5821 
G01 X12.7941 Y0.5821 
G01 X12.9800 Y0.6115 
G01 X13.1257 Y0.6589 
G01 X13.2074 Y0.6117 
G01 X13.2756 Y0.5934 
G01 X13.3177 Y0.5821 
G01 X14.5504 Y0.5821 
G01 X14.5787 Y0.5897 
G01 X14.6608 Y0.6117 
G01 X14.7597 Y0.6688 
G01 X14.7675 Y0.6766 
G01 X14.7809 Y0.6697 
G01 X14.9600 Y0.6115 
G01 X15.1459 Y0.5821 
G01 X15.3341 Y0.5821 
G01 X15.5200 Y0.6115 
G01 X15.6991 Y0.6697 
G01 X15.8668 Y0.7552 
G01 X16.0191 Y0.8658 
G01 X16.1522 Y0.9989 
G01 X16.2628 Y1.1512 
G01 X16.3483 Y1.3189 
G01 X16.4064 Y1.4980 
G01 X16.4359 Y1.6839 
G01 X16.4359 Y3.3961 
G01 X16.4064 Y3.5820 
G01 X16.3483 Y3.7611 
G01 X16.3089 Y3.8384 
G01 X16.3089 Y15.2116 
G01 X16.3483 Y15.2889 
G01 X16.4064 Y15.4680 
G01 X16.4359 Y15.6539 
G01 X16.4359 Y17.3661 
G01 X16.4064 Y17.5520 
G01 X16.3483 Y17.7311 
G01 X16.2628 Y17.8988 
G01 X16.1522 Y18.0511 
G01 X16.0191 Y18.1842 
G01 X15.8668 Y18.2948 
G01 X15.6991 Y18.3803 
G01 X15.5200 Y18.4384 
G01 X15.3341 Y18.4679 
G01 X15.1459 Y18.4679 
G01 X14.9600 Y18.4384 
G01 X14.7809 Y18.3803 
G01 X14.6132 Y18.2948 
G01 X14.4609 Y18.1842 
G01 X14.3278 Y18.0511 
G01 X14.3234 Y18.0450 
G01 X14.3136 Y18.0462 
G01 X14.2853 Y18.0537 
G01 X14.2572 Y18.0537 
G01 X14.2293 Y18.0573 
G01 X14.2003 Y18.0535 
G01 X13.6842 Y18.0522 
G01 X13.6563 Y18.0559 
G01 X13.6273 Y18.0521 
G01 X13.6112 Y18.0520 
G01 X13.4791 Y18.1842 
G01 X13.3268 Y18.2948 
G01 X13.1591 Y18.3803 
G01 X12.9800 Y18.4384 
G01 X12.7941 Y18.4679 
G01 X12.6059 Y18.4679 
G01 X12.4200 Y18.4384 
G01 X12.2409 Y18.3803 
G01 X12.0732 Y18.2948 
G01 X11.9209 Y18.1842 
G01 X11.7878 Y18.0511 
G01 X11.7852 Y18.0475 
G01 X11.7696 Y18.0474 
G01 X11.7417 Y18.0511 
G01 X11.7127 Y18.0473 
G01 X11.2018 Y18.0460 
G01 X11.1739 Y18.0497 
G01 X11.1449 Y18.0459 
G01 X11.1157 Y18.0458 
G01 X11.0885 Y18.0384 
G01 X11.0820 Y18.0376 
G01 X11.0722 Y18.0511 
G01 X10.9391 Y18.1842 
G01 X10.7868 Y18.2948 
G01 X10.6191 Y18.3803 
G01 X10.4400 Y18.4384 
G01 X10.2541 Y18.4679 
G01 X10.0659 Y18.4679 
G01 X9.8800 Y18.4384 
G01 X9.7009 Y18.3803 
G01 X9.5332 Y18.2948 
G01 X9.3809 Y18.1842 
G01 X9.2478 Y18.0511 
G01 X9.1372 Y17.8988 
G01 X9.0517 Y17.7311 
G01 X8.9935 Y17.5520 
G01 X8.9641 Y17.3661 
G01 X8.9641 Y16.8258 
G01 X6.5422 Y14.4039 
G01 X3.7259 Y14.4039 
G01 X3.5597 Y14.3776 
G01 X3.3997 Y14.3256 
G01 X3.2498 Y14.2492 
G01 X3.1137 Y14.1503 
G01 X2.9947 Y14.0313 
G01 X2.2147 Y13.2513 
G01 X2.1158 Y13.1152 
G01 X2.0394 Y12.9653 
G01 X1.9874 Y12.8053 
G01 X1.9611 Y12.6391 
G01 X1.9611 Y11.3784 
G01 X1.9217 Y11.3011 
G01 X1.8635 Y11.1220 
G01 X1.8341 Y10.9361 
G01 X1.8341 Y9.2239 
G01 X1.8635 Y9.0380 
G01 X1.9217 Y8.8589 
G01 X2.0072 Y8.6912 
G01 X2.1061 Y8.5551 
G01 X2.1061 Y6.2659 
G01 X2.1324 Y6.0997 
G01 X2.1844 Y5.9397 
G01 X2.2608 Y5.7898 
G01 X2.3597 Y5.6537 
G01 X2.4787 Y5.5347 
G01 X2.6148 Y5.4358 
G01 X2.7647 Y5.3594 
G01 X2.9247 Y5.3074 
G01 X3.0909 Y5.2811 
G01 X5.9072 Y5.2811 
G01 X6.5511 Y4.6372 
G01 X6.5511 Y3.8384 
G01 X6.5117 Y3.7611 
G01 X6.4535 Y3.5820 
G01 X6.4241 Y3.3961 
G01 X6.4241 Y1.6839 
G01 X6.4535 Y1.4980 
G01 X6.5117 Y1.3189 
G01 X6.5972 Y1.1512 
G01 X6.7078 Y0.9989 
G00 Z2.0000  F3000
G00 X16.8678 Y0.9989  F3000
G01 Z-0.2000 F200.00 
G01 X17.0009 Y0.8658 F500.00 
G01 X17.1532 Y0.7552 
G01 X17.3209 Y0.6697 
G01 X17.5000 Y0.6115 
G01 X17.6859 Y0.5821 
G01 X17.8741 Y0.5821 
G01 X18.0600 Y0.6115 
G01 X18.2391 Y0.6697 
G01 X18.4068 Y0.7552 
G01 X18.5591 Y0.8658 
G01 X18.6922 Y0.9989 
G01 X18.8028 Y1.1512 
G01 X18.8883 Y1.3189 
G01 X18.9464 Y1.4980 
G01 X18.9759 Y1.6839 
G01 X18.9759 Y3.3961 
G01 X18.9464 Y3.5820 
G01 X18.8883 Y3.7611 
G01 X18.8489 Y3.8384 
G01 X18.8489 Y15.2116 
G01 X18.8883 Y15.2889 
G01 X18.9464 Y15.4680 
G01 X18.9759 Y15.6539 
G01 X18.9759 Y17.3661 
G01 X18.9464 Y17.5520 
G01 X18.8883 Y17.7311 
G01 X18.8028 Y17.8988 
G01 X18.6922 Y18.0511 
G01 X18.5591 Y18.1842 
G01 X18.4068 Y18.2948 
G01 X18.2391 Y18.3803 
G01 X18.0600 Y18.4384 
G01 X17.8741 Y18.4679 
G01 X17.6859 Y18.4679 
G01 X17.5000 Y18.4384 
G01 X17.3209 Y18.3803 
G01 X17.1532 Y18.2948 
G01 X17.0009 Y18.1842 
G01 X16.8678 Y18.0511 
G01 X16.7572 Y17.8988 
G01 X16.6717 Y17.7311 
G01 X16.6135 Y17.5520 
G01 X16.5841 Y17.3661 
G01 X16.5841 Y15.6539 
G01 X16.6135 Y15.4680 
G01 X16.6717 Y15.2889 
G01 X16.7111 Y15.2116 
G01 X16.7111 Y3.8384 
G01 X16.6717 Y3.7611 
G01 X16.6135 Y3.5820 
G01 X16.5841 Y3.3961 
G01 X16.5841 Y1.6839 
G01 X16.6135 Y1.4980 
G01 X16.6717 Y1.3189 
G01 X16.7572 Y1.1512 
G01 X16.8678 Y0.9989 
G00 Z2.0000  F3000
G00 X6.6468 Y0.9468  F3000
G01 Z-0.2000 F200.00 
G01 X6.7888 Y0.8048 F500.00 
G01 X6.9513 Y0.6868 
G01 X7.1302 Y0.5956 
G01 X7.3212 Y0.5335 
G01 X7.5196 Y0.5021 
G01 X7.7204 Y0.5021 
G01 X7.9188 Y0.5335 
G01 X8.0825 Y0.5867 
G01 X8.1684 Y0.5371 
G01 X8.2991 Y0.5021 
G01 X9.4809 Y0.5021 
G01 X9.6116 Y0.5371 
G01 X9.6965 Y0.5861 
G01 X9.8612 Y0.5335 
G01 X10.0596 Y0.5021 
G01 X10.2604 Y0.5021 
G01 X10.4588 Y0.5335 
G01 X10.6225 Y0.5867 
G01 X10.7084 Y0.5371 
G01 X10.8391 Y0.5021 
G01 X12.0928 Y0.5021 
G01 X12.1613 Y0.5205 
G01 X12.2235 Y0.5371 
G01 X12.2835 Y0.5718 
G01 X12.4012 Y0.5335 
G01 X12.5996 Y0.5021 
G01 X12.8004 Y0.5021 
G01 X12.9988 Y0.5335 
G01 X13.1165 Y0.5718 
G01 X13.1765 Y0.5371 
G01 X13.2357 Y0.5213 
G01 X13.3072 Y0.5021 
G01 X14.5609 Y0.5021 
G01 X14.6916 Y0.5371 
G01 X14.7765 Y0.5861 
G01 X14.9412 Y0.5335 
G01 X15.1396 Y0.5021 
G01 X15.3404 Y0.5021 
G01 X15.5388 Y0.5335 
G01 X15.7298 Y0.5956 
G01 X15.9087 Y0.6868 
G01 X16.0712 Y0.8048 
G01 X16.2132 Y0.9468 
G01 X16.3312 Y1.1093 
G01 X16.4224 Y1.2882 
G01 X16.4845 Y1.4792 
G01 X16.5100 Y1.6403 
G01 X16.5355 Y1.4792 
G01 X16.5976 Y1.2882 
G01 X16.6888 Y1.1093 
G01 X16.8068 Y0.9468 
G01 X16.9488 Y0.8048 
G01 X17.1113 Y0.6868 
G01 X17.2902 Y0.5956 
G01 X17.4812 Y0.5335 
G01 X17.6796 Y0.5021 
G01 X17.8804 Y0.5021 
G01 X18.0788 Y0.5335 
G01 X18.2698 Y0.5956 
G01 X18.4487 Y0.6868 
G01 X18.6112 Y0.8048 
G01 X18.7532 Y0.9468 
G01 X18.8712 Y1.1093 
G01 X18.9624 Y1.2882 
G01 X19.0245 Y1.4792 
G01 X19.0559 Y1.6776 
G01 X19.0559 Y3.4024 
G01 X19.0245 Y3.6008 
G01 X18.9624 Y3.7918 
G01 X18.9289 Y3.8576 
G01 X18.9289 Y15.1924 
G01 X18.9624 Y15.2582 
G01 X19.0245 Y15.4492 
G01 X19.0559 Y15.6476 
G01 X19.0559 Y17.3724 
G01 X19.0245 Y17.5708 
G01 X18.9624 Y17.7618 
G01 X18.8712 Y17.9407 
G01 X18.7532 Y18.1032 
G01 X18.6112 Y18.2452 
G01 X18.4487 Y18.3632 
G01 X18.2698 Y18.4544 
G01 X18.0788 Y18.5165 
G01 X17.8804 Y18.5479 
G01 X17.6796 Y18.5479 
G01 X17.4812 Y18.5165 
G01 X17.2902 Y18.4544 
G01 X17.1113 Y18.3632 
G01 X16.9488 Y18.2452 
G01 X16.8068 Y18.1032 
G01 X16.6888 Y17.9407 
G01 X16.5976 Y17.7618 
G01 X16.5355 Y17.5708 
G01 X16.5100 Y17.4096 
G01 X16.4845 Y17.5708 
G01 X16.4224 Y17.7618 
G01 X16.3312 Y17.9407 
G01 X16.2132 Y18.1032 
G01 X16.0712 Y18.2452 
G01 X15.9087 Y18.3632 
G01 X15.7298 Y18.4544 
G01 X15.5388 Y18.5165 
G01 X15.3404 Y18.5479 
G01 X15.1396 Y18.5479 
G01 X14.9412 Y18.5165 
G01 X14.7502 Y18.4544 
G01 X14.5713 Y18.3632 
G01 X14.4088 Y18.2452 
G01 X14.2970 Y18.1334 
G01 X14.2623 Y18.1337 
G01 X14.2293 Y18.1380 
G01 X14.1950 Y18.1335 
G01 X13.6893 Y18.1322 
G01 X13.6563 Y18.1366 
G01 X13.6417 Y18.1347 
G01 X13.5312 Y18.2452 
G01 X13.3687 Y18.3632 
G01 X13.1898 Y18.4544 
G01 X12.9988 Y18.5165 
G01 X12.8004 Y18.5479 
G01 X12.5996 Y18.5479 
G01 X12.4012 Y18.5165 
G01 X12.2102 Y18.4544 
G01 X12.0313 Y18.3632 
G01 X11.8688 Y18.2452 
G01 X11.7538 Y18.1302 
G01 X11.7417 Y18.1318 
G01 X11.7074 Y18.1273 
G01 X11.2069 Y18.1260 
G01 X11.1739 Y18.1304 
G01 X11.1395 Y18.1258 
G01 X11.1106 Y18.1258 
G01 X10.9912 Y18.2452 
G01 X10.8287 Y18.3632 
G01 X10.6498 Y18.4544 
G01 X10.4588 Y18.5165 
G01 X10.2604 Y18.5479 
G01 X10.0596 Y18.5479 
G01 X9.8612 Y18.5165 
G01 X9.6702 Y18.4544 
G01 X9.4913 Y18.3632 
G01 X9.3288 Y18.2452 
G01 X9.1868 Y18.1032 
G01 X9.0688 Y17.9407 
G01 X8.9776 Y17.7618 
G01 X8.9155 Y17.5708 
G01 X8.8841 Y17.3724 
G01 X8.8841 Y16.8589 
G01 X6.5091 Y14.4839 
G01 X3.7196 Y14.4839 
G01 X3.5410 Y14.4556 
G01 X3.3690 Y14.3997 
G01 X3.2078 Y14.3176 
G01 X3.0615 Y14.2113 
G01 X2.9337 Y14.0835 
G01 X2.1537 Y13.3035 
G01 X2.0474 Y13.1572 
G01 X1.9653 Y12.9960 
G01 X1.9094 Y12.8240 
G01 X1.8811 Y12.6454 
G01 X1.8811 Y11.3976 
G01 X1.8476 Y11.3318 
G01 X1.7855 Y11.1408 
G01 X1.7541 Y10.9424 
G01 X1.7541 Y9.2176 
G01 X1.7855 Y9.0192 
G01 X1.8476 Y8.8282 
G01 X1.9388 Y8.6493 
G01 X2.0261 Y8.5291 
G01 X2.0261 Y6.2596 
G01 X2.0544 Y6.0810 
G01 X2.1103 Y5.9090 
G01 X2.1924 Y5.7478 
G01 X2.2987 Y5.6015 
G01 X2.4265 Y5.4737 
G01 X2.5728 Y5.3674 
G01 X2.7340 Y5.2853 
G01 X2.9060 Y5.2294 
G01 X3.0846 Y5.2011 
G01 X5.8741 Y5.2011 
G01 X6.4711 Y4.6041 
G01 X6.4711 Y3.8576 
G01 X6.4376 Y3.7918 
G01 X6.3755 Y3.6008 
G01 X6.3441 Y3.4024 
G01 X6.3441 Y1.6776 
G01 X6.3755 Y1.4792 
G01 X6.4376 Y1.2882 
G01 X6.5288 Y1.1093 
G01 X6.6468 Y0.9468 
G00 Z2.0000  F3000
G00 X16.5100 Y3.4396  F3000
G01 Z-0.2000 F200.00 
G01 X16.4845 Y3.6008 F500.00 
G01 X16.4224 Y3.7918 
G01 X16.3889 Y3.8576 
G01 X16.3889 Y15.1924 
G01 X16.4224 Y15.2582 
G01 X16.4845 Y15.4492 
G01 X16.5100 Y15.6104 
G01 X16.5355 Y15.4492 
G01 X16.5976 Y15.2582 
G01 X16.6311 Y15.1924 
G01 X16.6311 Y3.8576 
G01 X16.5976 Y3.7918 
G01 X16.5355 Y3.6008 
G01 X16.5100 Y3.4396 
G00 Z2.0000  F3000
G00 X6.5858 Y0.8947  F3000
G01 Z-0.2000 F200.00 
G01 X6.7367 Y0.7438 F500.00 
G01 X6.9094 Y0.6183 
G01 X7.0995 Y0.5214 
G01 X7.3025 Y0.4555 
G01 X7.5133 Y0.4221 
G01 X7.7267 Y0.4221 
G01 X7.9375 Y0.4555 
G01 X8.0715 Y0.4990 
G01 X8.0854 Y0.4897 
G01 X8.1496 Y0.4631 
G01 X8.1935 Y0.4449 
G01 X8.2691 Y0.4299 
G01 X8.3082 Y0.4221 
G01 X9.4718 Y0.4221 
G01 X9.5088 Y0.4295 
G01 X9.5865 Y0.4449 
G01 X9.6322 Y0.4639 
G01 X9.6946 Y0.4897 
G01 X9.7085 Y0.4990 
G01 X9.8425 Y0.4555 
G01 X10.0533 Y0.4221 
G01 X10.2667 Y0.4221 
G01 X10.4775 Y0.4555 
G01 X10.6115 Y0.4990 
G01 X10.6254 Y0.4897 
G01 X10.6896 Y0.4631 
G01 X10.7335 Y0.4449 
G01 X10.8091 Y0.4299 
G01 X10.8482 Y0.4221 
G01 X12.0836 Y0.4221 
G01 X12.1396 Y0.4333 
G01 X12.1984 Y0.4449 
G01 X12.2936 Y0.4844 
G01 X12.3825 Y0.4555 
G01 X12.5933 Y0.4221 
G01 X12.8067 Y0.4221 
G01 X13.0175 Y0.4555 
G01 X13.1064 Y0.4844 
G01 X13.2016 Y0.4449 
G01 X13.2582 Y0.4337 
G01 X13.3164 Y0.4221 
G01 X14.5518 Y0.4221 
G01 X14.5888 Y0.4295 
G01 X14.6665 Y0.4449 
G01 X14.7122 Y0.4639 
G01 X14.7746 Y0.4897 
G01 X14.7885 Y0.4990 
G01 X14.9225 Y0.4555 
G01 X15.1333 Y0.4221 
G01 X15.3467 Y0.4221 
G01 X15.5575 Y0.4555 
G01 X15.7605 Y0.5214 
G01 X15.9506 Y0.6183 
G01 X16.1233 Y0.7438 
G01 X16.2742 Y0.8947 
G01 X16.3997 Y1.0674 
G01 X16.4966 Y1.2575 
G01 X16.5100 Y1.2989 
G01 X16.5234 Y1.2575 
G01 X16.6203 Y1.0674 
G01 X16.7458 Y0.8947 
G01 X16.8967 Y0.7438 
G01 X17.0694 Y0.6183 
G01 X17.2595 Y0.5214 
G01 X17.4625 Y0.4555 
G01 X17.6733 Y0.4221 
G01 X17.8867 Y0.4221 
G01 X18.0975 Y0.4555 
G01 X18.3005 Y0.5214 
G01 X18.4906 Y0.6183 
G01 X18.6633 Y0.7438 
G01 X18.8142 Y0.8947 
G01 X18.9397 Y1.0674 
G01 X19.0366 Y1.2575 
G01 X19.1025 Y1.4605 
G01 X19.1359 Y1.6713 
G01 X19.1359 Y3.4087 
G01 X19.1025 Y3.6195 
G01 X19.0366 Y3.8225 
G01 X19.0089 Y3.8768 
G01 X19.0089 Y15.1732 
G01 X19.0366 Y15.2275 
G01 X19.1025 Y15.4305 
G01 X19.1359 Y15.6413 
G01 X19.1359 Y17.3787 
G01 X19.1025 Y17.5895 
G01 X19.0366 Y17.7925 
G01 X18.9397 Y17.9826 
G01 X18.8142 Y18.1553 
G01 X18.6633 Y18.3062 
G01 X18.4906 Y18.4317 
G01 X18.3005 Y18.5286 
G01 X18.0975 Y18.5945 
G01 X17.8867 Y18.6279 
G01 X17.6733 Y18.6279 
G01 X17.4625 Y18.5945 
G01 X17.2595 Y18.5286 
G01 X17.0694 Y18.4317 
G01 X16.8967 Y18.3062 
G01 X16.7458 Y18.1553 
G01 X16.6203 Y17.9826 
G01 X16.5234 Y17.7925 
G01 X16.5100 Y17.7511 
G01 X16.4966 Y17.7925 
G01 X16.3997 Y17.9826 
G01 X16.2742 Y18.1553 
G01 X16.1233 Y18.3062 
G01 X15.9506 Y18.4317 
G01 X15.7605 Y18.5286 
G01 X15.5575 Y18.5945 
G01 X15.3467 Y18.6279 
G01 X15.1333 Y18.6279 
G01 X14.9225 Y18.5945 
G01 X14.7195 Y18.5286 
G01 X14.5294 Y18.4317 
G01 X14.3567 Y18.3062 
G01 X14.2642 Y18.2137 
G01 X14.2290 Y18.2136 
G01 X14.1708 Y18.2136 
G01 X13.6773 Y18.2122 
G01 X13.5833 Y18.3062 
G01 X13.4106 Y18.4317 
G01 X13.2205 Y18.5286 
G01 X13.0175 Y18.5945 
G01 X12.8067 Y18.6279 
G01 X12.5933 Y18.6279 
G01 X12.3825 Y18.5945 
G01 X12.1795 Y18.5286 
G01 X11.9894 Y18.4317 
G01 X11.8167 Y18.3062 
G01 X11.7178 Y18.2073 
G01 X11.6832 Y18.2073 
G01 X11.1736 Y18.2059 
G01 X11.1436 Y18.2059 
G01 X11.0433 Y18.3062 
G01 X10.8706 Y18.4317 
G01 X10.6805 Y18.5286 
G01 X10.4775 Y18.5945 
G01 X10.2667 Y18.6279 
G01 X10.0533 Y18.6279 
G01 X9.8425 Y18.5945 
G01 X9.6395 Y18.5286 
G01 X9.4494 Y18.4317 
G01 X9.2767 Y18.3062 
G01 X9.1258 Y18.1553 
G01 X9.0003 Y17.9826 
G01 X8.9034 Y17.7925 
G01 X8.8375 Y17.5895 
G01 X8.8041 Y17.3787 
G01 X8.8041 Y16.8920 
G01 X6.4760 Y14.5639 
G01 X3.7133 Y14.5639 
G01 X3.5222 Y14.5336 
G01 X3.3383 Y14.4739 
G01 X3.1659 Y14.3860 
G01 X3.0094 Y14.2723 
G01 X2.8726 Y14.1356 
G01 X2.0926 Y13.3556 
G01 X1.9789 Y13.1991 
G01 X1.8911 Y13.0267 
G01 X1.8314 Y12.8428 
G01 X1.8011 Y12.6517 
G01 X1.8011 Y11.4168 
G01 X1.7734 Y11.3625 
G01 X1.7075 Y11.1595 
G01 X1.6741 Y10.9487 
G01 X1.6741 Y9.2113 
G01 X1.7075 Y9.0005 
G01 X1.7734 Y8.7975 
G01 X1.8703 Y8.6074 
G01 X1.9461 Y8.5031 
G01 X1.9461 Y6.2533 
G01 X1.9764 Y6.0622 
G01 X2.0361 Y5.8783 
G01 X2.1239 Y5.7059 
G01 X2.2376 Y5.5494 
G01 X2.3744 Y5.4126 
G01 X2.5309 Y5.2989 
G01 X2.7033 Y5.2111 
G01 X2.8872 Y5.1514 
G01 X3.0783 Y5.1211 
G01 X5.8410 Y5.1211 
G01 X6.3911 Y4.5710 
G01 X6.3911 Y3.8768 
G01 X6.3634 Y3.8225 
G01 X6.2975 Y3.6195 
G01 X6.2641 Y3.4087 
G01 X6.2641 Y1.6713 
G01 X6.2975 Y1.4605 
G01 X6.3634 Y1.2575 
G01 X6.4603 Y1.0674 
G01 X6.5858 Y0.8947 
G00 Z2.0000  F3000
G00 X16.5100 Y3.7811  F3000
G01 Z-0.2000 F200.00 
G01 X16.4966 Y3.8225 F500.00 
G01 X16.4689 Y3.8768 
G01 X16.4689 Y15.1732 
G01 X16.4966 Y15.2275 
G01 X16.5100 Y15.2689 
G01 X16.5234 Y15.2275 
G01 X16.5511 Y15.1732 
G01 X16.5511 Y3.8768 
G01 X16.5234 Y3.8225 
G01 X16.5100 Y3.7811 
G00 Z2.0000  F3000
G00 Z5.0000  F3000
;M03 S0
M0
