; generated by Slic3r 1.2.9 on 2019-05-31 at 14:52:38

; external perimeters extrusion width = 0.40mm
; perimeters extrusion width = 0.40mm
; infill extrusion width = 0.40mm
; solid infill extrusion width = 0.40mm
; top infill extrusion width = 0.40mm

M107
M83
T0
M116
G21 ; set units to millimeters
G90 ; use absolute coordinates
M83 ; use relative distances for extrusion
G1 E-4.20000 F1500.00000
G1 Z1.000 F15000.000
G1 X18.586 Y0.000 F15000.000
G1 Z0.300 F15000.000
G1 E4.20000 F1500.00000
G1 X18.586 Y27.950 E2.15398 F960.000
G1 X18.191 Y29.597 E0.13052
G1 X17.093 Y30.887 E0.13052
G1 X14.950 Y31.586 E0.17373
G1 X-14.950 Y31.586 E2.30426
G1 X-16.597 Y31.191 E0.13052
G1 X-17.887 Y30.093 E0.13052
G1 X-18.586 Y27.950 E0.17373
G1 X-18.586 Y-27.950 E4.30796
G1 X-18.191 Y-29.597 E0.13052
G1 X-17.093 Y-30.887 E0.13052
G1 X-14.950 Y-31.586 E0.17373
G1 X14.950 Y-31.586 E2.30426
G1 X16.597 Y-31.191 E0.13052
G1 X17.887 Y-30.093 E0.13052 F960.000
G1 X18.586 Y-27.950 E0.17373
G1 X18.586 Y-0.060 E2.14936
G1 E-4.20000 F1500.00000
G1 Z1.300 F15000.000
G1 X9.136 Y21.483 F15000.000
G1 Z0.300 F15000.000
G1 E4.20000 F1500.00000
G1 X9.519 Y21.684 E0.03332 F600.000
G1 X9.842 Y21.971 E0.03331
G1 X10.088 Y22.327 E0.03332
G1 X10.241 Y22.731 E0.03331
G1 X10.293 Y23.160 E0.03332
G1 X10.241 Y23.589 E0.03332
G1 X10.088 Y23.993 E0.03332
G1 X9.842 Y24.349 E0.03331
G1 X9.519 Y24.636 E0.03332
G1 X9.136 Y24.837 E0.03332
G1 X8.716 Y24.940 E0.03332
G1 X8.284 Y24.940 E0.03332
G1 X7.864 Y24.837 E0.03332
G1 X7.481 Y24.636 E0.03332
G1 X7.158 Y24.349 E0.03331
G1 X6.912 Y23.993 E0.03331
G1 X6.759 Y23.589 E0.03332
G1 X6.707 Y23.160 E0.03332
G1 X6.759 Y22.731 E0.03332
G1 X6.912 Y22.327 E0.03331
G1 X7.158 Y21.971 E0.03331
G1 X7.481 Y21.684 E0.03332
G1 X7.864 Y21.483 E0.03332
G1 X8.284 Y21.380 E0.03332
G1 X8.716 Y21.380 E0.03331 F600.000
G1 X9.078 Y21.469 E0.02869
G1 X8.909 Y22.082 F15000.000
G1 X9.155 Y22.211 E0.02142 F600.000
G1 X9.363 Y22.395 E0.02142
G1 X9.521 Y22.624 E0.02142
G1 X9.619 Y22.884 E0.02142
G1 X9.653 Y23.160 E0.02142
G1 X9.619 Y23.436 E0.02142
G1 X9.521 Y23.696 E0.02142
G1 X9.363 Y23.925 E0.02142
G1 X9.155 Y24.109 E0.02142
G1 X8.909 Y24.238 E0.02142
G1 X8.639 Y24.305 E0.02142
G1 X8.361 Y24.305 E0.02142
G1 X8.091 Y24.238 E0.02142
G1 X7.845 Y24.109 E0.02142
G1 X7.637 Y23.925 E0.02142
G1 X7.479 Y23.696 E0.02142
G1 X7.381 Y23.436 E0.02142
G1 X7.347 Y23.160 E0.02142
G1 X7.381 Y22.884 E0.02142
G1 X7.479 Y22.624 E0.02142
G1 X7.637 Y22.395 E0.02142
G1 X7.845 Y22.211 E0.02142
G1 X8.091 Y22.082 E0.02142
G1 X8.361 Y22.015 E0.02142
G1 X8.639 Y22.015 E0.02142 F600.000
G1 X8.851 Y22.068 E0.01680
G1 X9.131 Y21.915 F15000.000
G1 X7.226 Y5.931 F15000.000
G1 X6.741 Y5.923 E0.03737 F600.000
G1 X6.311 Y5.817 E0.03416
G1 X5.896 Y5.599 E0.03610
G1 X5.545 Y5.289 E0.03610
G1 X5.275 Y4.896 E0.03674
G1 X5.110 Y4.440 E0.03737
G1 X5.057 Y4.000 E0.03416
G1 X5.113 Y3.535 E0.03610
G1 X5.279 Y3.097 E0.03610
G1 X5.545 Y2.711 E0.03610
G1 X5.896 Y2.401 E0.03610
G1 X6.311 Y2.183 E0.03610
G1 X6.774 Y2.069 E0.03674 F600.000
G1 X7.259 Y2.077 E0.03737
G1 X7.689 Y2.183 E0.03416
G1 X8.104 Y2.401 E0.03610
G1 X8.455 Y2.711 E0.03610
G1 X8.725 Y3.104 E0.03674
G1 X8.890 Y3.560 E0.03737
G1 X8.943 Y4.000 E0.03416
G1 X8.887 Y4.465 E0.03610
G1 X8.721 Y4.903 E0.03610
G1 X8.455 Y5.289 E0.03610
G1 X8.104 Y5.599 E0.03610
G1 X7.689 Y5.817 E0.03610
G1 X7.284 Y5.917 E0.03211
G1 X7.154 Y5.294 F15000.000
G1 X6.824 Y5.289 E0.02548 F600.000
G1 X6.538 Y5.218 E0.02268
G1 X6.260 Y5.072 E0.02421
G1 X6.025 Y4.864 E0.02421
G1 X5.845 Y4.603 E0.02443
G1 X5.733 Y4.292 E0.02548
G1 X5.697 Y4.000 E0.02268
G1 X5.735 Y3.688 E0.02421
G1 X5.846 Y3.394 E0.02421
G1 X6.025 Y3.136 E0.02421
G1 X6.260 Y2.928 E0.02421
G1 X6.538 Y2.782 E0.02421
G1 X6.846 Y2.706 E0.02443 F600.000
G1 X7.176 Y2.711 E0.02548
G1 X7.462 Y2.782 E0.02268
G1 X7.740 Y2.928 E0.02421
G1 X7.975 Y3.136 E0.02421
G1 X8.155 Y3.397 E0.02443
G1 X8.267 Y3.708 E0.02548
G1 X8.303 Y4.000 E0.02268
G1 X8.265 Y4.312 E0.02421
G1 X8.154 Y4.606 E0.02421
G1 X7.975 Y4.864 E0.02421
G1 X7.740 Y5.072 E0.02421
G1 X7.462 Y5.218 E0.02421
G1 X7.212 Y5.280 E0.01981
G1 X7.009 Y5.591 F15000.000
G1 E-4.20000 F1500.00000
G1 Z1.300 F15000.000
G1 X7.226 Y-7.069 F15000.000
G1 Z0.300 F15000.000
G1 E4.20000 F1500.00000
G1 X6.741 Y-7.077 E0.03737 F600.000
G1 X6.311 Y-7.183 E0.03416
G1 X5.896 Y-7.401 E0.03610
G1 X5.545 Y-7.711 E0.03610
G1 X5.275 Y-8.104 E0.03674
G1 X5.110 Y-8.560 E0.03737
G1 X5.057 Y-9.000 E0.03416
G1 X5.113 Y-9.465 E0.03610
G1 X5.279 Y-9.903 E0.03610
G1 X5.545 Y-10.289 E0.03610
G1 X5.896 Y-10.599 E0.03610
G1 X6.311 Y-10.817 E0.03610
G1 X6.774 Y-10.931 E0.03674 F600.000
G1 X7.259 Y-10.923 E0.03737
G1 X7.689 Y-10.817 E0.03416
G1 X8.104 Y-10.599 E0.03610
G1 X8.455 Y-10.289 E0.03610
G1 X8.725 Y-9.896 E0.03674
G1 X8.890 Y-9.440 E0.03737
G1 X8.943 Y-9.000 E0.03416
G1 X8.887 Y-8.535 E0.03610
G1 X8.721 Y-8.097 E0.03610
G1 X8.450 Y-7.705 E0.03674
G1 X8.082 Y-7.389 E0.03737
G1 X7.689 Y-7.183 E0.03416
G1 X7.284 Y-7.083 E0.03211
G1 X7.154 Y-7.706 F15000.000
G1 X6.824 Y-7.711 E0.02548 F600.000
G1 X6.538 Y-7.782 E0.02268
G1 X6.260 Y-7.928 E0.02421
G1 X6.025 Y-8.136 E0.02421
G1 X5.845 Y-8.397 E0.02443
G1 X5.733 Y-8.708 E0.02548
G1 X5.697 Y-9.000 E0.02268
G1 X5.735 Y-9.312 E0.02421
G1 X5.846 Y-9.606 E0.02421
G1 X6.025 Y-9.864 E0.02421
G1 X6.260 Y-10.072 E0.02421
G1 X6.538 Y-10.218 E0.02421
G1 X6.846 Y-10.294 E0.02443 F600.000
G1 X7.176 Y-10.289 E0.02548
G1 X7.462 Y-10.218 E0.02268
G1 X7.740 Y-10.072 E0.02421
G1 X7.975 Y-9.864 E0.02421
G1 X8.155 Y-9.603 E0.02443
G1 X8.267 Y-9.292 E0.02548
G1 X8.303 Y-9.000 E0.02268
G1 X8.265 Y-8.688 E0.02421
G1 X8.154 Y-8.394 E0.02421
G1 X7.974 Y-8.134 E0.02443
G1 X7.723 Y-7.918 E0.02548
G1 X7.462 Y-7.782 E0.02268
G1 X7.212 Y-7.720 E0.01981
G1 X7.009 Y-7.409 F15000.000
G1 X5.634 Y-6.771 F15000.000
G1 X5.689 Y-6.680 E0.00818 F600.000
G1 X6.153 Y-5.307 E0.11166
G1 X6.291 Y-3.998 E0.10140
G1 X6.144 Y-2.648 E0.10471
G1 X5.722 Y-1.386 E0.10252
G1 X5.022 Y-0.211 E0.10541
G1 X4.090 Y0.780 E0.10480
G1 X2.968 Y1.546 E0.10474
G1 X1.708 Y2.055 E0.10474
G1 X0.368 Y2.280 E0.10474
G1 X-0.990 Y2.212 E0.10474
G1 X-2.304 Y1.854 E0.10499
G1 X-3.559 Y1.185 E0.10961
G1 X-4.546 Y0.347 E0.09978
G1 X-5.373 Y-0.729 E0.10454
G1 X-5.950 Y-1.959 E0.10473
G1 X-6.250 Y-3.287 E0.10495
G1 X-6.250 Y-4.713 E0.10986
G1 X-5.950 Y-6.041 E0.10495
G1 X-5.373 Y-7.271 E0.10473
G1 X-4.545 Y-8.349 E0.10473
G1 X-3.505 Y-9.224 E0.10473
G1 X-2.301 Y-9.855 E0.10473
G1 X-0.990 Y-10.212 E0.10474
G1 X0.368 Y-10.280 E0.10474 F600.000
G1 X1.708 Y-10.055 E0.10474
G1 X2.967 Y-9.547 E0.10460
G1 X4.038 Y-8.821 E0.09974
G1 X5.019 Y-7.794 E0.10943
G1 X5.603 Y-6.822 E0.08741
G1 X5.059 Y-6.494 F15000.000
G1 X5.109 Y-6.411 E0.00750 F600.000
G1 X5.528 Y-5.170 E0.10094
G1 X5.652 Y-3.999 E0.09073
G1 X5.520 Y-2.785 E0.09416
G1 X5.141 Y-1.653 E0.09198
G1 X4.511 Y-0.596 E0.09480
G1 X3.675 Y0.294 E0.09412
G1 X2.667 Y0.983 E0.09410
G1 X1.534 Y1.439 E0.09409
G1 X0.330 Y1.642 E0.09409
G1 X-0.889 Y1.581 E0.09409
G1 X-2.068 Y1.259 E0.09418
G1 X-3.200 Y0.656 E0.09884
G1 X-4.083 Y-0.094 E0.08930
G1 X-4.827 Y-1.061 E0.09402
G1 X-5.345 Y-2.166 E0.09408
G1 X-5.614 Y-3.358 E0.09416
G1 X-5.614 Y-4.642 E0.09893
G1 X-5.345 Y-5.834 E0.09416
G1 X-4.827 Y-6.939 E0.09408
G1 X-4.083 Y-7.907 E0.09409
G1 X-3.148 Y-8.693 E0.09409
G1 X-2.067 Y-9.260 E0.09409
G1 X-0.889 Y-9.581 E0.09409
G1 X0.330 Y-9.642 E0.09409 F600.000
G1 X1.534 Y-9.439 E0.09409
G1 X2.666 Y-8.983 E0.09404
G1 X3.625 Y-8.333 E0.08928
G1 X4.510 Y-7.406 E0.09877
G1 X5.028 Y-6.546 E0.07736
G1 X5.156 Y-6.496 F15000.000
G1 X5.066 Y-21.571 F15000.000
G1 X4.611 Y-21.683 E0.03610 F600.000
G1 X4.196 Y-21.901 E0.03610
G1 X3.845 Y-22.211 E0.03610
G1 X3.579 Y-22.597 E0.03610
G1 X3.413 Y-23.035 E0.03610
G1 X3.356 Y-23.508 E0.03674
G1 X3.422 Y-23.989 E0.03737
G1 X3.579 Y-24.403 E0.03416
G1 X3.845 Y-24.789 E0.03610
G1 X4.196 Y-25.099 E0.03610
G1 X4.611 Y-25.317 E0.03610
G1 X5.066 Y-25.429 E0.03610
G1 X5.534 Y-25.429 E0.03610 F600.000
G1 X5.989 Y-25.317 E0.03610
G1 X6.404 Y-25.099 E0.03610
G1 X6.755 Y-24.789 E0.03610
G1 X7.021 Y-24.403 E0.03610
G1 X7.187 Y-23.965 E0.03610
G1 X7.244 Y-23.492 E0.03674
G1 X7.178 Y-23.011 E0.03737
G1 X7.021 Y-22.597 E0.03416
G1 X6.750 Y-22.205 E0.03674
G1 X6.382 Y-21.889 E0.03737
G1 X5.989 Y-21.683 E0.03416
G1 X5.534 Y-21.571 E0.03610
G1 X5.126 Y-21.571 E0.03148
G1 X5.143 Y-22.207 F15000.000
G1 X4.838 Y-22.282 E0.02421 F600.000
G1 X4.560 Y-22.428 E0.02421
G1 X4.325 Y-22.636 E0.02421
G1 X4.146 Y-22.895 E0.02421
G1 X4.035 Y-23.188 E0.02421
G1 X3.997 Y-23.503 E0.02443
G1 X4.042 Y-23.830 E0.02548
G1 X4.146 Y-24.106 E0.02268
G1 X4.325 Y-24.364 E0.02421
G1 X4.560 Y-24.572 E0.02421
G1 X4.838 Y-24.718 E0.02421
G1 X5.143 Y-24.793 E0.02421
G1 X5.457 Y-24.793 E0.02421 F600.000
G1 X5.762 Y-24.718 E0.02421
G1 X6.040 Y-24.572 E0.02421
G1 X6.275 Y-24.364 E0.02421
G1 X6.454 Y-24.106 E0.02421
G1 X6.565 Y-23.812 E0.02421
G1 X6.603 Y-23.497 E0.02443
G1 X6.558 Y-23.170 E0.02548
G1 X6.454 Y-22.894 E0.02268
G1 X6.274 Y-22.634 E0.02443
G1 X6.023 Y-22.418 E0.02548
G1 X5.762 Y-22.282 E0.02268
G1 X5.457 Y-22.207 E0.02421
G1 X5.203 Y-22.207 E0.01958
G1 X4.944 Y-21.963 F15000.000
G1 X-5.557 Y-23.500 F15000.000
G1 X-5.613 Y-23.035 E0.03610 F600.000
G1 X-5.779 Y-22.597 E0.03610
G1 X-6.045 Y-22.211 E0.03610
G1 X-6.396 Y-21.901 E0.03610
G1 X-6.811 Y-21.683 E0.03610
G1 X-7.266 Y-21.571 E0.03610
G1 X-7.734 Y-21.571 E0.03610
G1 X-8.189 Y-21.683 E0.03610
G1 X-8.604 Y-21.901 E0.03610
G1 X-8.955 Y-22.211 E0.03610
G1 X-9.221 Y-22.597 E0.03610
G1 X-9.387 Y-23.035 E0.03610
G1 X-9.443 Y-23.500 E0.03610
G1 X-9.387 Y-23.965 E0.03610
G1 X-9.221 Y-24.403 E0.03610
G1 X-8.955 Y-24.789 E0.03610
G1 X-8.604 Y-25.099 E0.03610
G1 X-8.189 Y-25.317 E0.03610
G1 X-7.734 Y-25.429 E0.03610
G1 X-7.266 Y-25.429 E0.03610 F600.000
G1 X-6.811 Y-25.317 E0.03610
G1 X-6.396 Y-25.099 E0.03610
G1 X-6.039 Y-24.783 E0.03674
G1 X-5.770 Y-24.380 E0.03737
G1 X-5.613 Y-23.965 E0.03416
G1 X-5.564 Y-23.560 E0.03148
G1 X-6.197 Y-23.500 F15000.000
G1 X-6.235 Y-23.188 E0.02421 F600.000
G1 X-6.346 Y-22.894 E0.02421
G1 X-6.525 Y-22.636 E0.02421
G1 X-6.760 Y-22.428 E0.02421
G1 X-7.038 Y-22.282 E0.02421
G1 X-7.343 Y-22.207 E0.02421
G1 X-7.657 Y-22.207 E0.02421
G1 X-7.962 Y-22.282 E0.02421
G1 X-8.240 Y-22.428 E0.02421
G1 X-8.475 Y-22.636 E0.02421
G1 X-8.654 Y-22.894 E0.02421
G1 X-8.765 Y-23.188 E0.02421
G1 X-8.803 Y-23.500 E0.02421
G1 X-8.765 Y-23.812 E0.02421
G1 X-8.654 Y-24.106 E0.02421
G1 X-8.475 Y-24.364 E0.02421
G1 X-8.240 Y-24.572 E0.02421
G1 X-7.962 Y-24.718 E0.02421
G1 X-7.657 Y-24.793 E0.02421
G1 X-7.343 Y-24.793 E0.02421 F600.000
G1 X-7.038 Y-24.718 E0.02421
G1 X-6.760 Y-24.572 E0.02421
G1 X-6.523 Y-24.362 E0.02443
G1 X-6.339 Y-24.087 E0.02548
G1 X-6.235 Y-23.812 E0.02268
G1 X-6.204 Y-23.560 E0.01958
G1 X-5.932 Y-23.332 F15000.000
G1 X-8.284 Y11.220 F15000.000
G1 X-7.864 Y11.323 E0.03332 F600.000
G1 X-7.481 Y11.524 E0.03332
G1 X-7.158 Y11.811 E0.03331
G1 X-6.907 Y12.174 E0.03399
G1 X-6.756 Y12.594 E0.03445
G1 X-6.707 Y13.000 E0.03148
G1 X-6.759 Y13.429 E0.03332
G1 X-6.912 Y13.833 E0.03332
G1 X-7.158 Y14.189 E0.03332
G1 X-7.481 Y14.476 E0.03332
G1 X-7.864 Y14.677 E0.03332
G1 X-8.284 Y14.780 E0.03332
G1 X-8.716 Y14.780 E0.03331
G1 X-9.136 Y14.677 E0.03332
G1 X-9.519 Y14.476 E0.03332
G1 X-9.842 Y14.189 E0.03331
G1 X-10.093 Y13.826 E0.03399
G1 X-10.244 Y13.406 E0.03445
G1 X-10.293 Y13.000 E0.03148
G1 X-10.241 Y12.571 E0.03332
G1 X-10.088 Y12.167 E0.03332
G1 X-9.842 Y11.811 E0.03331
G1 X-9.519 Y11.524 E0.03332
G1 X-9.136 Y11.323 E0.03332
G1 X-8.716 Y11.220 E0.03332
G1 X-8.344 Y11.220 E0.02869 F600.000
G1 X-8.361 Y11.855 F15000.000
G1 X-8.091 Y11.922 E0.02142 F600.000
G1 X-7.845 Y12.051 E0.02142
G1 X-7.637 Y12.235 E0.02142
G1 X-7.477 Y12.467 E0.02166
G1 X-7.378 Y12.742 E0.02255
G1 X-7.347 Y13.000 E0.02002
G1 X-7.381 Y13.276 E0.02142
G1 X-7.479 Y13.536 E0.02142
G1 X-7.637 Y13.765 E0.02142
G1 X-7.845 Y13.949 E0.02142
G1 X-8.091 Y14.078 E0.02142
G1 X-8.361 Y14.145 E0.02142
G1 X-8.639 Y14.145 E0.02142
G1 X-8.909 Y14.078 E0.02142
G1 X-9.155 Y13.949 E0.02142
G1 X-9.363 Y13.765 E0.02142
G1 X-9.523 Y13.533 E0.02166
G1 X-9.622 Y13.258 E0.02255
G1 X-9.653 Y13.000 E0.02002
G1 X-9.619 Y12.724 E0.02142
G1 X-9.521 Y12.464 E0.02142
G1 X-9.363 Y12.235 E0.02142
G1 X-9.155 Y12.051 E0.02142
G1 X-8.909 Y11.922 E0.02142
G1 X-8.639 Y11.855 E0.02142
G1 X-8.421 Y11.855 E0.01679 F600.000
G1 X-8.185 Y11.640 F15000.000
G1 E-4.20000 F1500.00000
G1 Z1.300 F15000.000
G1 X13.964 Y-13.470 F15000.000
G1 Z0.300 F15000.000
G1 E4.20000 F1500.00000
G1 X13.964 Y26.964 E3.11606 F720.000
G1 X-13.964 Y26.964 E2.15234 F720.000
G1 X-13.964 Y-26.964 E4.15605
G1 X13.964 Y-26.964 E2.15234
G1 X13.964 Y-13.530 E1.03536
G1 X14.600 Y-13.530 F15000.000
G1 X14.600 Y27.600 E3.16967 F720.000
G1 X-14.600 Y27.600 E2.25031 F720.000
G1 X-14.600 Y-27.600 E4.25402
G1 X14.600 Y-27.600 E2.25031
G1 X14.600 Y-13.590 E1.07972
G1 X14.254 Y-13.330 F15000.000
G1 X13.579 Y-9.968 F15000.000
G1 X-3.032 Y-26.579 E1.82399 F960.000
G1 X-3.938 Y-26.579 E0.07032
G1 X13.579 Y-9.062 E1.92343
G1 X13.579 Y-8.156 E0.07032
G1 X-4.844 Y-26.579 E2.02287
G1 X-5.749 Y-26.579 E0.07032
G1 X13.579 Y-7.251 E2.12232
G1 X13.579 Y-6.345 E0.07032
G1 X-6.655 Y-26.579 E2.22176
G1 X-8.388 Y-25.595 F15000.000
G1 X-9.372 Y-26.579 E0.10807 F960.000
G1 X-10.277 Y-26.579 E0.07032
G1 X-8.940 Y-25.242 E0.14681
G1 X-9.373 Y-24.769 E0.04977
G1 X-11.183 Y-26.579 E0.19879
G1 X-12.089 Y-26.579 E0.07032
G1 X-9.680 Y-24.170 E0.26454
G1 X-9.827 Y-23.411 E0.05998
G1 X-12.994 Y-26.579 E0.34781
G1 X-13.579 Y-26.258 E0.05178
G1 X2.438 Y-10.241 E1.75878
G1 X1.222 Y-10.552 E0.09752
G1 X-13.579 Y-25.352 E1.62517
G1 X-13.579 Y-24.447 E0.07032
G1 X0.216 Y-10.652 E1.51474
G1 X-0.647 Y-10.609 E0.06706
G1 X-13.579 Y-23.541 E1.42002
G1 X-13.579 Y-22.635 E0.07032
G1 X-1.409 Y-10.466 E1.33630
G1 X-2.121 Y-10.271 E0.05727
G1 X-13.579 Y-21.730 E1.25817
G1 X-13.579 Y-20.824 E0.07032
G1 X-2.754 Y-9.999 E1.18863
G1 X-3.348 Y-9.688 E0.05209
G1 X-13.579 Y-19.918 E1.12339
G1 X-13.579 Y-19.013 E0.07032
G1 X-3.894 Y-9.328 E1.06345
G1 X-4.386 Y-8.914 E0.04991
G1 X-13.579 Y-18.107 E1.00943
G1 X-13.579 Y-17.202 E0.07032
G1 X-4.860 Y-8.482 E0.95739
G1 X-5.253 Y-7.970 E0.05015
G1 X-13.579 Y-16.296 E0.91419
G1 X-13.579 Y-15.390 E0.07032
G1 X-5.647 Y-7.458 E0.87098
G1 X-5.946 Y-6.852 E0.05250
G1 X-13.579 Y-14.485 E0.83812
G1 X-13.579 Y-13.579 E0.07032
G1 X-6.235 Y-6.235 E0.80637
G1 X-6.434 Y-5.528 E0.05703
G1 X-13.579 Y-12.673 E0.78457
G1 X-13.579 Y-11.768 E0.07032
G1 X-6.601 Y-4.789 E0.76625
G1 X-6.635 Y-3.918 E0.06768
G1 X-13.579 Y-10.862 E0.76245
G1 X-13.579 Y-9.956 E0.07032
G1 X-6.611 Y-2.989 E0.76506
G1 X-6.347 Y-1.819 E0.09312
G1 X-13.579 Y-9.051 E0.79408
G1 X-13.579 Y-8.145 E0.07032
G1 X-5.450 Y-0.017 E0.89255
G1 X-3.908 Y1.526 F15000.000
G1 X13.579 Y19.013 E1.92010 F960.000
G1 X13.579 Y18.107 E0.07032
G1 X-2.207 Y2.322 E1.73333
G1 X-1.019 Y2.604 E0.09478
G1 X13.579 Y17.202 E1.60292
G1 X13.579 Y16.296 E0.07032
G1 X-0.066 Y2.651 E1.49826
G1 X0.771 Y2.582 E0.06518
G1 X13.579 Y15.390 E1.40638
G1 X13.579 Y14.485 E0.07032
G1 X1.546 Y2.452 E1.32126
G1 X2.220 Y2.220 E0.05532
G1 X4.758 Y4.758 E0.27870
G1 X4.708 Y3.802 E0.07431
G1 X2.865 Y1.960 E0.20232
G1 X3.439 Y1.628 E0.05147
G1 X4.909 Y3.097 E0.16136
G1 X5.258 Y2.542 E0.05099
G1 X3.977 Y1.260 E0.14070
G1 X4.475 Y0.852 E0.04996
G1 X5.730 Y2.107 E0.13782
G1 X6.337 Y1.809 E0.05253
G1 X4.914 Y0.385 E0.15629
G1 X5.342 Y-0.092 E0.04980
G1 X7.121 Y1.687 E0.19535
G1 X8.341 Y2.002 E0.09787
G1 X5.680 Y-0.660 E0.29228
G1 X6.017 Y-1.228 E0.05130
G1 X13.579 Y6.334 E0.83029
G1 X13.579 Y7.239 E0.07032
G1 X9.032 Y2.692 E0.49931
G1 X9.329 Y3.895 E0.09620
G1 X13.579 Y8.145 E0.46668
G1 X13.579 Y9.051 E0.07032
G1 X9.185 Y4.656 E0.48252
G1 X8.880 Y5.258 E0.05232
G1 X13.579 Y9.956 E0.51595
G1 X13.579 Y10.862 E0.07032
G1 X8.450 Y5.733 E0.56317
G1 X7.900 Y6.088 E0.05087
G1 X13.579 Y11.768 E0.62361
G1 X13.579 Y12.673 E0.07032
G1 X7.209 Y6.303 E0.69948
G1 X6.232 Y6.232 E0.07607
G1 X13.579 Y13.579 E0.80677
G1 X13.579 Y19.918 F15000.000
G1 X-13.579 Y-7.239 E2.98206 F960.000
G1 X-13.579 Y-6.334 E0.07032
G1 X13.579 Y20.824 E2.98206
