; generated by Slic3r 1.2.9 on 2019-06-10 at 15:53:17

; external perimeters extrusion width = 0.40mm
; perimeters extrusion width = 0.40mm
; infill extrusion width = 0.40mm
; solid infill extrusion width = 0.40mm
; top infill extrusion width = 0.40mm

M107
M83
T0
M116
G21 ; set units to millimeters
G90 ; use absolute coordinates
M83 ; use relative distances for extrusion
G1 E-4.20000 F1500.00000
G1 Z1.000 F15000.000
G1 X28.586 Y0.000 F15000.000
G1 Z0.300 F15000.000
G1 E4.20000 F1500.00000
G1 X28.586 Y14.979 E1.15439 F960.000
G1 X27.829 Y17.199 E0.18073
G1 X17.829 Y30.170 E1.26218
G1 X16.511 Y31.233 E0.13052
G1 X14.950 Y31.586 E0.12334
G1 X-14.950 Y31.586 E2.30426
G1 X-16.597 Y31.191 E0.13052
G1 X-17.829 Y30.170 E0.12334
G1 X-27.829 Y17.199 E1.26218
G1 X-28.586 Y14.979 E0.18073
G1 X-28.586 Y-14.979 E2.30877
G1 X-27.829 Y-17.199 E0.18073
G1 X-17.829 Y-30.170 E1.26218
G1 X-16.511 Y-31.233 E0.13052
G1 X-14.950 Y-31.586 E0.12334
G1 X14.950 Y-31.586 E2.30426
G1 X16.597 Y-31.191 E0.13052
G1 X17.829 Y-30.170 E0.12334 F960.000
G1 X27.829 Y-17.199 E1.26218
G1 X28.586 Y-14.979 E0.18073
G1 X28.586 Y-0.060 E1.14976
G1 E-4.20000 F1500.00000
G1 Z1.300 F15000.000
G1 X-10.846 Y24.394 F15000.000
G1 Z0.300 F15000.000
G1 E4.20000 F1500.00000
G1 X-10.735 Y24.688 E0.02421 F600.000
G1 X-10.697 Y25.000 E0.02421
G1 X-10.735 Y25.312 E0.02421
G1 X-10.846 Y25.606 E0.02421
G1 X-11.025 Y25.864 E0.02421
G1 X-11.260 Y26.072 E0.02421
G1 X-11.538 Y26.218 E0.02421
G1 X-11.843 Y26.293 E0.02421
G1 X-12.157 Y26.293 E0.02421
G1 X-12.462 Y26.218 E0.02421
G1 X-12.740 Y26.072 E0.02421
G1 X-12.975 Y25.864 E0.02421
G1 X-13.157 Y25.600 E0.02468
G1 X-13.270 Y25.267 E0.02711
G1 X-13.303 Y25.000 E0.02076
G1 X-13.265 Y24.688 E0.02421
G1 X-13.154 Y24.394 E0.02421
G1 X-12.975 Y24.136 E0.02421
G1 X-12.740 Y23.928 E0.02421
G1 X-12.462 Y23.782 E0.02421
G1 X-12.157 Y23.707 E0.02421 F600.000
G1 X-11.843 Y23.707 E0.02421
G1 X-11.532 Y23.783 E0.02468
G1 X-11.226 Y23.957 E0.02711
G1 X-11.025 Y24.136 E0.02076
G1 X-10.880 Y24.345 E0.01958
G1 X-10.533 Y24.420 F15000.000
G1 E-4.20000 F1500.00000
G1 Z1.300 F15000.000
G1 X-13.823 Y26.964 F15000.000
G1 Z0.300 F15000.000
G1 E4.20000 F1500.00000
G1 X-13.964 Y26.964 E0.01087 F600.000
G1 X-13.964 Y26.022 E0.07266
G1 X-13.696 Y25.938 E0.02163
G1 X-13.455 Y26.289 E0.03282
G1 X-13.104 Y26.599 E0.03610 F600.000
G1 X-12.961 Y26.674 E0.01244
G1 X-13.032 Y26.964 E0.02303
G1 X-13.763 Y26.964 E0.05633
G1 E-4.20000 F1500.00000
G1 Z1.300 F15000.000
G1 X-23.964 Y-0.103 F15000.000
G1 Z0.300 F15000.000
G1 E4.20000 F1500.00000
G1 X-23.964 Y-14.571 E1.11499 F720.000
G1 X-22.036 Y-16.500 E0.21021
G1 X-22.036 Y16.500 E2.54313
G1 X-23.964 Y14.571 E0.21021 F720.000
G1 X-23.964 Y-0.043 E1.12623
G1 X-21.400 Y-0.043 F15000.000
G1 X-21.400 Y-17.400 E1.33763 F720.000
G1 X-16.600 Y-17.400 E0.36991 F720.000
G1 X-16.600 Y17.400 E2.68188
G1 X-21.400 Y17.400 E0.36991
G1 X-21.400 Y0.017 E1.33962
G1 X-21.746 Y-0.243 F15000.000
G1 E-4.20000 F1500.00000
G1 Z1.300 F15000.000
G1 X7.158 Y21.971 F15000.000
G1 Z0.300 F15000.000
G1 E4.20000 F1500.00000
G1 X7.481 Y21.684 E0.03332 F600.000
G1 X7.864 Y21.483 E0.03332
G1 X8.284 Y21.380 E0.03332
G1 X8.716 Y21.380 E0.03331 F600.000
G1 X9.136 Y21.483 E0.03332
G1 X9.519 Y21.684 E0.03332
G1 X9.842 Y21.971 E0.03332
G1 X10.088 Y22.327 E0.03332
G1 X10.241 Y22.731 E0.03331
G1 X10.294 Y23.169 E0.03399
G1 X10.233 Y23.611 E0.03445
G1 X10.088 Y23.993 E0.03148
G1 X9.842 Y24.349 E0.03331
G1 X9.519 Y24.636 E0.03332
G1 X9.136 Y24.837 E0.03332
G1 X8.716 Y24.940 E0.03332
G1 X8.284 Y24.940 E0.03331
G1 X7.864 Y24.837 E0.03332
G1 X7.481 Y24.636 E0.03332
G1 X7.158 Y24.349 E0.03331
G1 X6.912 Y23.993 E0.03332
G1 X6.759 Y23.589 E0.03332
G1 X6.706 Y23.151 E0.03399
G1 X6.767 Y22.709 E0.03445
G1 X6.912 Y22.327 E0.03148
G1 X7.124 Y22.020 E0.02869
G1 X7.637 Y22.395 F15000.000
G1 X7.845 Y22.211 E0.02142 F600.000
G1 X8.091 Y22.082 E0.02142
G1 X8.361 Y22.015 E0.02142
G1 X8.639 Y22.015 E0.02142 F600.000
G1 X8.909 Y22.082 E0.02142
G1 X9.155 Y22.211 E0.02142
G1 X9.363 Y22.395 E0.02142
G1 X9.521 Y22.624 E0.02142
G1 X9.619 Y22.884 E0.02142
G1 X9.653 Y23.163 E0.02166
G1 X9.613 Y23.453 E0.02255
G1 X9.521 Y23.696 E0.02002
G1 X9.363 Y23.925 E0.02142
G1 X9.155 Y24.109 E0.02142
G1 X8.909 Y24.238 E0.02142
G1 X8.639 Y24.305 E0.02142
G1 X8.361 Y24.305 E0.02142
G1 X8.091 Y24.238 E0.02142
G1 X7.845 Y24.109 E0.02142
G1 X7.637 Y23.925 E0.02142
G1 X7.479 Y23.696 E0.02142
G1 X7.381 Y23.436 E0.02142
G1 X7.347 Y23.157 E0.02166
G1 X7.387 Y22.867 E0.02255
G1 X7.479 Y22.624 E0.02002
G1 X7.603 Y22.445 E0.01680
G1 X7.560 Y22.128 F15000.000
G1 X-6.912 Y13.833 F15000.000
G1 X-7.158 Y14.189 E0.03332 F600.000
G1 X-7.481 Y14.476 E0.03331
G1 X-7.864 Y14.677 E0.03332
G1 X-8.284 Y14.780 E0.03332
G1 X-8.716 Y14.780 E0.03331
G1 X-9.136 Y14.677 E0.03332
G1 X-9.519 Y14.476 E0.03332
G1 X-9.842 Y14.189 E0.03331
G1 X-10.093 Y13.826 E0.03399
G1 X-10.244 Y13.406 E0.03445
G1 X-10.293 Y13.000 E0.03148
G1 X-10.241 Y12.571 E0.03332
G1 X-10.088 Y12.167 E0.03332
G1 X-9.842 Y11.811 E0.03332
G1 X-9.519 Y11.524 E0.03332
G1 X-9.136 Y11.323 E0.03332
G1 X-8.716 Y11.220 E0.03332
G1 X-8.284 Y11.220 E0.03331 F600.000
G1 X-7.864 Y11.323 E0.03332
G1 X-7.481 Y11.524 E0.03332
G1 X-7.158 Y11.811 E0.03331
G1 X-6.907 Y12.174 E0.03399
G1 X-6.756 Y12.594 E0.03445
G1 X-6.707 Y13.000 E0.03148
G1 X-6.759 Y13.429 E0.03332
G1 X-6.891 Y13.777 E0.02869
G1 X-7.479 Y13.536 F15000.000
G1 X-7.637 Y13.765 E0.02142 F600.000
G1 X-7.845 Y13.949 E0.02142
G1 X-8.091 Y14.078 E0.02142
G1 X-8.361 Y14.145 E0.02142
G1 X-8.639 Y14.145 E0.02142
G1 X-8.909 Y14.078 E0.02142
G1 X-9.155 Y13.949 E0.02142
G1 X-9.363 Y13.765 E0.02142
G1 X-9.523 Y13.533 E0.02166
G1 X-9.622 Y13.258 E0.02255
G1 X-9.653 Y13.000 E0.02002
G1 X-9.619 Y12.724 E0.02142
G1 X-9.521 Y12.464 E0.02142
G1 X-9.363 Y12.235 E0.02142
G1 X-9.155 Y12.051 E0.02142
G1 X-8.909 Y11.922 E0.02142
G1 X-8.639 Y11.855 E0.02142
G1 X-8.361 Y11.855 E0.02142 F600.000
G1 X-8.091 Y11.922 E0.02142
G1 X-7.845 Y12.051 E0.02142
G1 X-7.637 Y12.235 E0.02142
G1 X-7.477 Y12.467 E0.02166
G1 X-7.378 Y12.742 E0.02255
G1 X-7.347 Y13.000 E0.02002
G1 X-7.381 Y13.276 E0.02142
G1 X-7.458 Y13.480 E0.01680
G1 X-7.340 Y13.777 F15000.000
G1 X15.964 Y5.048 F15000.000
G1 X15.964 Y18.036 E1.00089 F720.000
G1 X20.500 Y18.036 E0.34952
G1 X18.571 Y19.964 E0.21021
G1 X13.964 Y19.964 E0.35501
G1 X13.964 Y26.964 E0.53946
G1 X-10.968 Y26.964 E1.92140
G1 X-11.039 Y26.674 E0.02303
G1 X-10.896 Y26.599 E0.01244
G1 X-10.545 Y26.289 E0.03610
G1 X-10.279 Y25.903 E0.03610
G1 X-10.113 Y25.465 E0.03610
G1 X-10.057 Y25.000 E0.03610
G1 X-10.113 Y24.535 E0.03610
G1 X-10.279 Y24.097 E0.03610
G1 X-10.545 Y23.711 E0.03610
G1 X-10.854 Y23.438 E0.03179
G1 X-11.294 Y23.187 E0.03901
G1 X-11.766 Y23.071 E0.03744
G1 X-12.234 Y23.071 E0.03610
G1 X-12.689 Y23.183 E0.03610
G1 X-13.104 Y23.401 E0.03610
G1 X-13.455 Y23.711 E0.03610
G1 X-13.696 Y24.062 E0.03282
G1 X-13.964 Y23.978 E0.02163
G1 X-13.964 Y19.964 E0.30935
G1 X-18.571 Y19.964 E0.35501
G1 X-20.500 Y18.036 E0.21021
G1 X-15.964 Y18.036 E0.34952
G1 X-15.964 Y-18.036 E2.77985
G1 X-20.500 Y-18.036 E0.34952
G1 X-18.571 Y-19.964 E0.21021
G1 X-13.964 Y-19.964 E0.35501
G1 X-13.964 Y-26.964 E0.53946
G1 X10.968 Y-26.964 E1.92139
G1 X11.039 Y-26.674 E0.02303
G1 X10.896 Y-26.599 E0.01244 F720.000
G1 X10.545 Y-26.289 E0.03610
G1 X10.279 Y-25.903 E0.03610
G1 X10.113 Y-25.465 E0.03610
G1 X10.057 Y-25.000 E0.03610
G1 X10.106 Y-24.590 E0.03179
G1 X10.269 Y-24.111 E0.03901
G1 X10.545 Y-23.711 E0.03744
G1 X10.896 Y-23.401 E0.03610
G1 X11.311 Y-23.183 E0.03610
G1 X11.766 Y-23.071 E0.03610
G1 X12.234 Y-23.071 E0.03610
G1 X12.689 Y-23.183 E0.03610
G1 X13.054 Y-23.375 E0.03179
G1 X13.445 Y-23.697 E0.03901
G1 X13.696 Y-24.062 E0.03416
G1 X13.964 Y-23.978 E0.02163
G1 X13.964 Y-19.964 E0.30935
G1 X18.571 Y-19.964 E0.35501
G1 X20.500 Y-18.036 E0.21021
G1 X15.964 Y-18.036 E0.34952
G1 X15.964 Y4.988 E1.77434
G1 X12.157 Y-23.707 F15000.000
G1 X11.843 Y-23.707 E0.02421 F600.000
G1 X11.538 Y-23.782 E0.02421
G1 X11.260 Y-23.928 E0.02421
G1 X11.025 Y-24.136 E0.02421
G1 X10.843 Y-24.400 E0.02468
G1 X10.730 Y-24.733 E0.02711
G1 X10.697 Y-25.000 E0.02076
G1 X10.735 Y-25.312 E0.02421
G1 X10.846 Y-25.606 E0.02421
G1 X11.025 Y-25.864 E0.02421
G1 X11.260 Y-26.072 E0.02421
G1 X11.538 Y-26.218 E0.02421
G1 X11.843 Y-26.293 E0.02421
G1 X12.157 Y-26.293 E0.02421 F600.000
G1 X12.462 Y-26.218 E0.02421
G1 X12.740 Y-26.072 E0.02421
G1 X12.975 Y-25.864 E0.02421
G1 X13.157 Y-25.600 E0.02468
G1 X13.270 Y-25.267 E0.02711
G1 X13.303 Y-25.000 E0.02076
G1 X13.265 Y-24.688 E0.02421
G1 X13.154 Y-24.394 E0.02421
G1 X12.972 Y-24.131 E0.02468
G1 X12.701 Y-23.907 E0.02711
G1 X12.462 Y-23.782 E0.02076
G1 X12.215 Y-23.721 E0.01958
G1 X12.022 Y-23.423 F15000.000
G1 E-4.20000 F1500.00000
G1 Z1.300 F15000.000
G1 X13.964 Y-26.317 F15000.000
G1 Z0.300 F15000.000
G1 E4.20000 F1500.00000
G1 X13.964 Y-26.022 E0.02278 F600.000
G1 X13.696 Y-25.938 E0.02163 F600.000
G1 X13.455 Y-26.289 E0.03282
G1 X13.104 Y-26.599 E0.03610
G1 X12.961 Y-26.674 E0.01244
G1 X13.032 Y-26.964 E0.02303
G1 X13.964 Y-26.964 E0.07182
G1 X13.964 Y-26.377 E0.04526
G1 E-4.20000 F1500.00000
G1 Z1.300 F15000.000
G1 X16.600 Y-17.400 F15000.000
G1 Z0.300 F15000.000
G1 E4.20000 F1500.00000
G1 X21.400 Y-17.400 E0.36991 F720.000
G1 X21.400 Y17.400 E2.68188
G1 X16.600 Y17.400 E0.36991
G1 X16.600 Y-17.340 E2.67726
G1 X16.600 Y-17.800 F15000.000
G1 E-4.20000 F1500.00000
G1 Z1.300 F15000.000
G1 X22.036 Y-0.856 F15000.000
G1 Z0.300 F15000.000
G1 E4.20000 F1500.00000
G1 X22.036 Y-16.500 E1.20556 F720.000
G1 X23.964 Y-14.571 E0.21021
G1 X23.964 Y14.571 E2.24585 F720.000
G1 X22.036 Y16.500 E0.21021
G1 X22.036 Y-0.796 E1.33294
G1 X24.600 Y-0.796 F15000.000
G1 X24.600 Y14.834 E1.20459 F720.000
G1 X18.834 Y20.600 E0.62839
G1 X14.600 Y20.600 E0.32632
G1 X14.600 Y27.600 E0.53946 F720.000
G1 X-14.600 Y27.600 E2.25031
G1 X-14.600 Y20.600 E0.53946
G1 X-18.834 Y20.600 E0.32632
G1 X-24.600 Y14.834 E0.62839
G1 X-24.600 Y-14.834 E2.28643
G1 X-18.834 Y-20.600 E0.62839
G1 X-14.600 Y-20.600 E0.32632
G1 X-14.600 Y-27.600 E0.53946
G1 X14.600 Y-27.600 E2.25031
G1 X14.600 Y-20.600 E0.53946
G1 X18.834 Y-20.600 E0.32632
G1 X24.600 Y-14.834 E0.62839
G1 X24.600 Y-0.856 E1.07721
G1 X24.254 Y-0.596 F15000.000
G1 X23.579 Y-14.192 F15000.000
G1 X22.441 Y-15.330 E0.12706 F960.000
G1 X22.421 Y-14.429 E0.07115
G1 X23.579 Y-13.271 E0.12929
G1 X23.579 Y-12.351 E0.07271
G1 X22.421 Y-13.508 E0.12929
G1 X22.421 Y-12.588 E0.07271
G1 X23.579 Y-11.430 E0.12929
G1 X23.579 Y-10.509 E0.07271
G1 X22.421 Y-11.667 E0.12929
G1 X22.421 Y-10.746 E0.07271
G1 X23.579 Y-9.588 E0.12929
G1 X23.579 Y-8.667 E0.07271
G1 X22.421 Y-9.825 E0.12929
G1 X22.421 Y-8.904 E0.07271
G1 X23.579 Y-7.746 E0.12929
G1 X23.579 Y-6.825 E0.07271
G1 X22.421 Y-7.983 E0.12929
G1 X22.421 Y-7.062 E0.07271
G1 X23.579 Y-5.904 E0.12929
G1 X23.579 Y-4.983 E0.07271
G1 X22.421 Y-6.141 E0.12929
G1 X22.421 Y-5.220 E0.07271
G1 X23.579 Y-4.062 E0.12929
G1 X23.579 Y-3.141 E0.07271
G1 X22.421 Y-4.299 E0.12929
G1 X22.421 Y-3.378 E0.07271
G1 X23.579 Y-2.220 E0.12929
G1 X23.579 Y-1.299 E0.07271
G1 X22.421 Y-2.457 E0.12929
G1 X22.421 Y-1.536 E0.07271
G1 X23.579 Y-0.378 E0.12929
G1 X23.579 Y0.543 E0.07271
G1 X22.421 Y-0.615 E0.12929
G1 X22.421 Y0.306 E0.07271
G1 X23.579 Y1.464 E0.12929
G1 X23.579 Y2.385 E0.07271
G1 X22.421 Y1.227 E0.12929
G1 X22.421 Y2.148 E0.07271
G1 X23.579 Y3.305 E0.12929
G1 X23.579 Y4.226 E0.07271
G1 X22.421 Y3.068 E0.12929
G1 X22.421 Y3.989 E0.07271
G1 X23.579 Y5.147 E0.12929
G1 X23.579 Y6.068 E0.07271
G1 X22.421 Y4.910 E0.12929
G1 X22.421 Y5.831 E0.07271
G1 X23.579 Y6.989 E0.12929
G1 X23.579 Y7.910 E0.07271
G1 X22.421 Y6.752 E0.12929
G1 X22.421 Y7.673 E0.07271
G1 X23.579 Y8.831 E0.12929
G1 X23.579 Y9.752 E0.07271
G1 X22.421 Y8.594 E0.12929
G1 X22.421 Y9.515 E0.07271
G1 X23.579 Y10.673 E0.12929
G1 X23.579 Y11.594 E0.07271
G1 X22.421 Y10.436 E0.12929
G1 X22.421 Y11.357 E0.07271
G1 X23.579 Y12.515 E0.12929
G1 X23.579 Y13.436 E0.07271
G1 X22.421 Y12.278 E0.12929
G1 X22.421 Y13.199 E0.07271
G1 X23.579 Y14.357 E0.12929
G1 X23.171 Y14.870 E0.05175
G1 X22.421 Y14.120 E0.08376
G1 X22.421 Y15.041 E0.07271
G1 X22.711 Y15.330 E0.03234
G1 E-4.20000 F1500.00000
G1 Z1.300 F15000.000
G1 X18.421 Y18.421 F15000.000
G1 Z0.300 F15000.000
G1 E4.20000 F1500.00000
G1 X19.035 Y19.035 E0.06691 F960.000
G1 X18.585 Y19.484 E0.04903
G1 X17.522 Y18.421 E0.11594
G1 X16.622 Y18.421 E0.06934
G1 X17.780 Y19.579 E0.12626
G1 X16.881 Y19.579 E0.06934
G1 X-15.579 Y-12.881 E3.53936
G1 X-15.579 Y-13.780 E0.06934
G1 X15.579 Y17.378 E3.39739
G1 X15.579 Y16.478 E0.06934
G1 X-15.579 Y-14.680 E3.39739
G1 X-15.579 Y-15.579 E0.06934
G1 X15.579 Y15.579 E3.39739
G1 X15.579 Y14.680 E0.06934
G1 X-15.579 Y-16.478 E3.39739
G1 X-15.579 Y-17.378 E0.06934
G1 X15.579 Y13.780 E3.39739
G1 X15.579 Y12.881 E0.06934
G1 X-16.881 Y-19.579 E3.53936
G1 X-15.982 Y-19.579 E0.06934
G1 X15.579 Y11.982 E3.44130
G1 X15.579 Y11.082 E0.06934
G1 X-15.082 Y-19.579 E3.34324
G1 X-14.183 Y-19.579 E0.06934
G1 X15.579 Y10.183 E3.24518
G1 X15.579 Y9.284 E0.06934
G1 X-13.579 Y-19.874 E3.17931
G1 X-13.579 Y-20.773 E0.06934
G1 X15.579 Y8.384 E3.17931
G1 X15.579 Y7.485 E0.06934
G1 X-13.579 Y-21.673 E3.17931
G1 X-13.579 Y-22.572 E0.06934
G1 X15.579 Y6.586 E3.17931
G1 X15.579 Y5.686 E0.06934
G1 X-13.579 Y-23.471 E3.17931
G1 X-13.579 Y-24.371 E0.06934
G1 X15.579 Y4.787 E3.17931
G1 X15.579 Y3.888 E0.06934
G1 X-13.579 Y-25.270 E3.17931
G1 X-13.579 Y-26.169 E0.06934
G1 X15.579 Y2.989 E3.17931
G1 X15.579 Y2.089 E0.06934
G1 X-13.089 Y-26.579 E3.12591
G1 X-12.190 Y-26.579 E0.06934
G1 X15.579 Y1.190 E3.02785
G1 X15.579 Y0.291 E0.06934
G1 X-11.291 Y-26.579 E2.92979
G1 X-10.391 Y-26.579 E0.06934
G1 X15.579 Y-0.609 E2.83173
G1 X15.579 Y-1.508 E0.06934
G1 X-9.492 Y-26.579 E2.73367
G1 X-8.593 Y-26.579 E0.06934
G1 X15.579 Y-2.407 E2.63561
G1 X15.579 Y-3.307 E0.06934
G1 X-7.693 Y-26.579 E2.53755
G1 X-6.794 Y-26.579 E0.06934
G1 X15.579 Y-4.206 E2.43949
G1 X15.579 Y-5.105 E0.06934
G1 X-5.895 Y-26.579 E2.34143
G1 X-4.995 Y-26.579 E0.06934
G1 X15.579 Y-6.005 E2.24337
G1 X15.579 Y-6.904 E0.06934
G1 X-4.096 Y-26.579 E2.14531
G1 X-3.197 Y-26.579 E0.06934
G1 X15.579 Y-7.803 E2.04725
G1 X15.579 Y-8.703 E0.06934
G1 X-2.297 Y-26.579 E1.94919
G1 X-1.398 Y-26.579 E0.06934
G1 X15.579 Y-9.602 E1.85113
G1 X15.579 Y-10.501 E0.06934
G1 X-0.499 Y-26.579 E1.75307
G1 X0.401 Y-26.579 E0.06934
G1 X15.579 Y-11.401 E1.65501
G1 X15.579 Y-12.300 E0.06934
G1 X1.300 Y-26.579 E1.55696
G1 X2.199 Y-26.579 E0.06934
G1 X15.579 Y-13.199 E1.45890
G1 X15.579 Y-14.099 E0.06934
G1 X3.099 Y-26.579 E1.36084
G1 X3.998 Y-26.579 E0.06934
G1 X15.579 Y-14.998 E1.26278
G1 X15.579 Y-15.897 E0.06934
G1 X4.897 Y-26.579 E1.16472
G1 X9.394 Y-26.579 F15000.000
G1 X9.955 Y-26.018 E0.06115 F960.000
G1 X9.726 Y-25.347 E0.05464
G1 X8.494 Y-26.579 E0.13429
G1 X7.595 Y-26.579 E0.06934
G1 X9.717 Y-24.457 E0.23137
G1 X13.006 Y-22.967 F15000.000
G1 X13.579 Y-22.394 E0.06252 F960.000
G1 X13.579 Y-21.494 E0.06934
G1 X12.343 Y-22.730 E0.13473
G1 X11.463 Y-22.711 E0.06792
G1 X13.579 Y-20.595 E0.23076
G1 X13.579 Y-19.696 E0.06934
G1 X6.696 Y-26.579 E0.75052
G1 X5.796 Y-26.579 E0.06934
G1 X15.579 Y-16.797 E1.06666
G1 X15.579 Y-17.696 E0.06934
G1 X13.696 Y-19.579 E0.20533
G1 X14.595 Y-19.579 E0.06934
G1 X15.753 Y-18.421 E0.12626
G1 X16.652 Y-18.421 E0.06934
G1 X15.494 Y-19.579 E0.12626
G1 X16.394 Y-19.579 E0.06934
G1 X17.552 Y-18.421 E0.12626
G1 X18.451 Y-18.421 E0.06934
G1 X17.293 Y-19.579 E0.12626
G1 X18.192 Y-19.579 E0.06934
G1 X19.350 Y-18.421 E0.12626
G1 X-16.622 Y-18.421 F15000.000
G1 X-17.780 Y-19.579 E0.12626 F960.000
G1 X-18.585 Y-19.484 E0.06247
G1 X-17.522 Y-18.421 E0.11594
G1 X-18.421 Y-18.421 E0.06934
G1 X-19.035 Y-19.035 E0.06691
G1 E-4.20000 F1500.00000
G1 Z1.300 F15000.000
G1 X-10.618 Y13.664 F15000.000
G1 Z0.300 F15000.000
G1 E4.20000 F1500.00000
G1 X-15.579 Y8.703 E0.54099 F960.000
G1 X-15.579 Y7.803 E0.06934
G1 X-10.635 Y12.747 E0.53904
G1 X-10.419 Y12.064 E0.05525
G1 X-15.579 Y6.904 E0.56260
G1 X-15.579 Y6.005 E0.06934
G1 X-10.039 Y11.545 E0.60405
G1 X-9.534 Y11.150 E0.04940
G1 X-15.579 Y5.105 E0.65912
