; generated by Slic3r 1.2.9 on 2019-06-10 at 14:37:21

; external perimeters extrusion width = 0.40mm
; perimeters extrusion width = 0.40mm
; infill extrusion width = 0.40mm
; solid infill extrusion width = 0.40mm
; top infill extrusion width = 0.40mm

M107
M83
T0
M116
G21 ; set units to millimeters
G90 ; use absolute coordinates
M83 ; use relative distances for extrusion
G1 E-4.20000 F1500.00000
G1 Z1.000 F15000.000
G1 X28.586 Y0.000 F15000.000
G1 Z0.300 F15000.000
G1 E4.20000 F1500.00000
G1 X28.586 Y14.979 E1.15439 F960.000
G1 X27.829 Y17.199 E0.18073
G1 X17.829 Y30.170 E1.26218
G1 X16.511 Y31.233 E0.13052
G1 X14.950 Y31.586 E0.12334
G1 X-14.950 Y31.586 E2.30426
G1 X-16.597 Y31.191 E0.13052
G1 X-17.829 Y30.170 E0.12334
G1 X-27.829 Y17.199 E1.26218
G1 X-28.586 Y14.979 E0.18073
G1 X-28.586 Y-14.979 E2.30877
G1 X-27.829 Y-17.199 E0.18073
G1 X-17.829 Y-30.170 E1.26218
G1 X-16.511 Y-31.233 E0.13052
G1 X-14.950 Y-31.586 E0.12334
G1 X14.950 Y-31.586 E2.30426
G1 X16.597 Y-31.191 E0.13052
G1 X17.829 Y-30.170 E0.12334 F960.000
G1 X27.829 Y-17.199 E1.26218
G1 X28.586 Y-14.979 E0.18073
G1 X28.586 Y-0.060 E1.14976
G1 E-4.20000 F1500.00000
G1 Z1.300 F15000.000
G1 X-10.846 Y24.394 F15000.000
G1 Z0.300 F15000.000
G1 E4.20000 F1500.00000
G1 X-10.735 Y24.688 E0.02421 F600.000
G1 X-10.697 Y25.000 E0.02421
G1 X-10.735 Y25.312 E0.02421
G1 X-10.846 Y25.606 E0.02421
G1 X-11.025 Y25.864 E0.02421
G1 X-11.260 Y26.072 E0.02421
G1 X-11.538 Y26.218 E0.02421
G1 X-11.843 Y26.293 E0.02421
G1 X-12.157 Y26.293 E0.02421
G1 X-12.462 Y26.218 E0.02421
G1 X-12.740 Y26.072 E0.02421
G1 X-12.975 Y25.864 E0.02421
G1 X-13.157 Y25.600 E0.02468
G1 X-13.270 Y25.267 E0.02711
G1 X-13.303 Y25.000 E0.02076
G1 X-13.265 Y24.688 E0.02421
G1 X-13.154 Y24.394 E0.02421
G1 X-12.975 Y24.136 E0.02421
G1 X-12.740 Y23.928 E0.02421
G1 X-12.462 Y23.782 E0.02421
G1 X-12.157 Y23.707 E0.02421 F600.000
G1 X-11.843 Y23.707 E0.02421
G1 X-11.532 Y23.783 E0.02468
G1 X-11.226 Y23.957 E0.02711
G1 X-11.025 Y24.136 E0.02076
G1 X-10.880 Y24.345 E0.01958
G1 X-10.533 Y24.420 F15000.000
G1 E-4.20000 F1500.00000
G1 Z1.300 F15000.000
G1 X-13.113 Y26.964 F15000.000
G1 Z0.300 F15000.000
G1 E4.20000 F1500.00000
G1 X-13.964 Y26.964 E0.06564 F600.000
G1 X-13.964 Y26.022 E0.07266
G1 X-13.696 Y25.938 E0.02163
G1 X-13.455 Y26.289 E0.03282
G1 X-13.104 Y26.599 E0.03610 F600.000
G1 X-12.961 Y26.674 E0.01244
G1 X-13.032 Y26.964 E0.02303
G1 X-13.053 Y26.964 E0.00156
G1 E-4.20000 F1500.00000
G1 Z1.300 F15000.000
G1 X-22.036 Y0.880 F15000.000
G1 Z0.300 F15000.000
G1 E4.20000 F1500.00000
G1 X-22.036 Y16.500 E1.20375 F720.000
G1 X-23.964 Y14.571 E0.21021 F720.000
G1 X-23.964 Y-14.571 E2.24585
G1 X-22.036 Y-16.500 E0.21021
G1 X-22.036 Y0.820 E1.33476
G1 X-21.400 Y0.820 F15000.000
G1 X-21.400 Y-17.400 E1.40413 F720.000
G1 X-16.600 Y-17.400 E0.36991 F720.000
G1 X-16.600 Y17.400 E2.68188
G1 X-21.400 Y17.400 E0.36991
G1 X-21.400 Y0.880 E1.27312
G1 X-21.746 Y0.620 F15000.000
G1 E-4.20000 F1500.00000
G1 Z1.300 F15000.000
G1 X-10.854 Y23.438 F15000.000
G1 Z0.300 F15000.000
G1 E4.20000 F1500.00000
G1 X-11.294 Y23.187 E0.03901 F720.000
G1 X-11.766 Y23.071 E0.03744
G1 X-12.234 Y23.071 E0.03610
G1 X-12.689 Y23.183 E0.03610
G1 X-13.104 Y23.401 E0.03610
G1 X-13.455 Y23.711 E0.03610
G1 X-13.696 Y24.062 E0.03282
G1 X-13.964 Y23.978 E0.02163
G1 X-13.964 Y19.964 E0.30935
G1 X-18.571 Y19.964 E0.35501
G1 X-20.500 Y18.036 E0.21021
G1 X-15.964 Y18.036 E0.34952
G1 X-15.964 Y-18.036 E2.77985
G1 X-20.500 Y-18.036 E0.34952
G1 X-18.571 Y-19.964 E0.21021
G1 X-13.964 Y-19.964 E0.35501
G1 X-13.964 Y-26.964 E0.53946
G1 X10.968 Y-26.964 E1.92139
G1 X11.039 Y-26.674 E0.02303
G1 X10.896 Y-26.599 E0.01244 F720.000
G1 X10.545 Y-26.289 E0.03610
G1 X10.279 Y-25.903 E0.03610
G1 X10.113 Y-25.465 E0.03610
G1 X10.057 Y-25.000 E0.03610
G1 X10.106 Y-24.590 E0.03179
G1 X10.269 Y-24.111 E0.03901
G1 X10.545 Y-23.711 E0.03744
G1 X10.896 Y-23.401 E0.03610
G1 X11.311 Y-23.183 E0.03610
G1 X11.766 Y-23.071 E0.03610
G1 X12.234 Y-23.071 E0.03610
G1 X12.689 Y-23.183 E0.03610
G1 X13.054 Y-23.375 E0.03179
G1 X13.445 Y-23.697 E0.03901
G1 X13.696 Y-24.062 E0.03416
G1 X13.964 Y-23.978 E0.02163
G1 X13.964 Y-19.964 E0.30935
G1 X18.571 Y-19.964 E0.35501
G1 X20.500 Y-18.036 E0.21021
G1 X15.964 Y-18.036 E0.34952
G1 X15.964 Y18.036 E2.77985
G1 X20.500 Y18.036 E0.34952
G1 X18.571 Y19.964 E0.21021
G1 X13.964 Y19.964 E0.35501
G1 X13.964 Y26.964 E0.53946
G1 X-10.968 Y26.964 E1.92140
G1 X-11.039 Y26.674 E0.02303
G1 X-10.896 Y26.599 E0.01244
G1 X-10.545 Y26.289 E0.03610
G1 X-10.279 Y25.903 E0.03610
G1 X-10.113 Y25.465 E0.03610
G1 X-10.057 Y25.000 E0.03610
G1 X-10.113 Y24.535 E0.03610
G1 X-10.279 Y24.097 E0.03610
G1 X-10.545 Y23.711 E0.03610
G1 X-10.809 Y23.478 E0.02717
G1 X11.538 Y-23.782 F15000.000
G1 X11.260 Y-23.928 E0.02421 F600.000
G1 X11.025 Y-24.136 E0.02421
G1 X10.843 Y-24.400 E0.02468
G1 X10.730 Y-24.733 E0.02711
G1 X10.697 Y-25.000 E0.02076
G1 X10.735 Y-25.312 E0.02421
G1 X10.846 Y-25.606 E0.02421
G1 X11.025 Y-25.864 E0.02421
G1 X11.260 Y-26.072 E0.02421
G1 X11.538 Y-26.218 E0.02421
G1 X11.843 Y-26.293 E0.02421
G1 X12.157 Y-26.293 E0.02421 F600.000
G1 X12.462 Y-26.218 E0.02421
G1 X12.740 Y-26.072 E0.02421
G1 X12.975 Y-25.864 E0.02421
G1 X13.157 Y-25.600 E0.02468
G1 X13.270 Y-25.267 E0.02711
G1 X13.303 Y-25.000 E0.02076
G1 X13.265 Y-24.688 E0.02421
G1 X13.154 Y-24.394 E0.02421
G1 X12.972 Y-24.131 E0.02468
G1 X12.701 Y-23.907 E0.02711
G1 X12.462 Y-23.782 E0.02076
G1 X12.157 Y-23.707 E0.02421
G1 X11.843 Y-23.707 E0.02421
G1 X11.596 Y-23.767 E0.01958
G1 X11.287 Y-23.593 F15000.000
G1 E-4.20000 F1500.00000
G1 Z1.300 F15000.000
G1 X13.423 Y-26.317 F15000.000
G1 Z0.300 F15000.000
G1 E4.20000 F1500.00000
G1 X13.104 Y-26.599 E0.03282 F600.000
G1 X12.961 Y-26.674 E0.01244
G1 X13.032 Y-26.964 E0.02303
G1 X13.964 Y-26.964 E0.07182
G1 X13.964 Y-26.022 E0.07266
G1 X13.696 Y-25.938 E0.02163 F600.000
G1 X13.464 Y-26.274 E0.03149
G1 E-4.20000 F1500.00000
G1 Z1.300 F15000.000
G1 X16.600 Y-17.400 F15000.000
G1 Z0.300 F15000.000
G1 E4.20000 F1500.00000
G1 X21.400 Y-17.400 E0.36991 F720.000
G1 X21.400 Y17.400 E2.68188
G1 X16.600 Y17.400 E0.36991
G1 X16.600 Y-17.340 E2.67726
G1 X16.600 Y-17.800 F15000.000
G1 E-4.20000 F1500.00000
G1 Z1.300 F15000.000
G1 X22.036 Y-0.436 F15000.000
G1 Z0.300 F15000.000
G1 E4.20000 F1500.00000
G1 X22.036 Y-16.500 E1.23795 F720.000
G1 X23.964 Y-14.571 E0.21021
G1 X23.964 Y14.571 E2.24585 F720.000
G1 X22.036 Y16.500 E0.21021
G1 X22.036 Y-0.376 E1.30056
G1 X24.600 Y-0.376 F15000.000
G1 X24.600 Y14.834 E1.17221 F720.000
G1 X18.834 Y20.600 E0.62839
G1 X14.600 Y20.600 E0.32632
G1 X14.600 Y27.600 E0.53946 F720.000
G1 X-14.600 Y27.600 E2.25031
G1 X-14.600 Y20.600 E0.53946
G1 X-18.834 Y20.600 E0.32632
G1 X-24.600 Y14.834 E0.62839
G1 X-24.600 Y-14.834 E2.28643
G1 X-18.834 Y-20.600 E0.62839
G1 X-14.600 Y-20.600 E0.32632
G1 X-14.600 Y-27.600 E0.53946
G1 X14.600 Y-27.600 E2.25031
G1 X14.600 Y-20.600 E0.53946
G1 X18.834 Y-20.600 E0.32632
G1 X24.600 Y-14.834 E0.62839
G1 X24.600 Y-0.436 E1.10960
G1 X24.254 Y-0.176 F15000.000
G1 X23.579 Y-14.192 F15000.000
G1 X22.441 Y-15.330 E0.12706 F960.000
G1 X22.421 Y-14.429 E0.07115
G1 X23.579 Y-13.271 E0.12929
G1 X23.579 Y-12.351 E0.07271
G1 X22.421 Y-13.508 E0.12929
G1 X22.421 Y-12.588 E0.07271
G1 X23.579 Y-11.430 E0.12929
G1 X23.579 Y-10.509 E0.07271
G1 X22.421 Y-11.667 E0.12929
G1 X22.421 Y-10.746 E0.07271
G1 X23.579 Y-9.588 E0.12929
G1 X23.579 Y-8.667 E0.07271
G1 X22.421 Y-9.825 E0.12929
G1 X22.421 Y-8.904 E0.07271
G1 X23.579 Y-7.746 E0.12929
G1 X23.579 Y-6.825 E0.07271
G1 X22.421 Y-7.983 E0.12929
G1 X22.421 Y-7.062 E0.07271
G1 X23.579 Y-5.904 E0.12929
G1 X23.579 Y-4.983 E0.07271
G1 X22.421 Y-6.141 E0.12929
G1 X22.421 Y-5.220 E0.07271
G1 X23.579 Y-4.062 E0.12929
G1 X23.579 Y-3.141 E0.07271
G1 X22.421 Y-4.299 E0.12929
G1 X22.421 Y-3.378 E0.07271
G1 X23.579 Y-2.220 E0.12929
G1 X23.579 Y-1.299 E0.07271
G1 X22.421 Y-2.457 E0.12929
G1 X22.421 Y-1.536 E0.07271
G1 X23.579 Y-0.378 E0.12929
G1 X23.579 Y0.543 E0.07271
G1 X22.421 Y-0.615 E0.12929
G1 X22.421 Y0.306 E0.07271
G1 X23.579 Y1.464 E0.12929
G1 X23.579 Y2.385 E0.07271
G1 X22.421 Y1.227 E0.12929
G1 X22.421 Y2.148 E0.07271
G1 X23.579 Y3.305 E0.12929
G1 X23.579 Y4.226 E0.07271
G1 X22.421 Y3.068 E0.12929
G1 X22.421 Y3.989 E0.07271
G1 X23.579 Y5.147 E0.12929
G1 X23.579 Y6.068 E0.07271
G1 X22.421 Y4.910 E0.12929
G1 X22.421 Y5.831 E0.07271
G1 X23.579 Y6.989 E0.12929
G1 X23.579 Y7.910 E0.07271
G1 X22.421 Y6.752 E0.12929
G1 X22.421 Y7.673 E0.07271
G1 X23.579 Y8.831 E0.12929
G1 X23.579 Y9.752 E0.07271
G1 X22.421 Y8.594 E0.12929
G1 X22.421 Y9.515 E0.07271
G1 X23.579 Y10.673 E0.12929
G1 X23.579 Y11.594 E0.07271
G1 X22.421 Y10.436 E0.12929
G1 X22.421 Y11.357 E0.07271
G1 X23.579 Y12.515 E0.12929
G1 X23.579 Y13.436 E0.07271
G1 X22.421 Y12.278 E0.12929
G1 X22.421 Y13.199 E0.07271
G1 X23.579 Y14.357 E0.12929
G1 X23.171 Y14.870 E0.05175
G1 X22.421 Y14.120 E0.08376
G1 X22.421 Y15.041 E0.07271
G1 X22.711 Y15.330 E0.03234
G1 E-4.20000 F1500.00000
G1 Z1.300 F15000.000
G1 X18.421 Y18.421 F15000.000
G1 Z0.300 F15000.000
G1 E4.20000 F1500.00000
G1 X19.035 Y19.035 E0.06691 F960.000
G1 X18.585 Y19.484 E0.04903
G1 X17.522 Y18.421 E0.11594
G1 X16.622 Y18.421 E0.06934
G1 X17.780 Y19.579 E0.12626
G1 X16.881 Y19.579 E0.06934
G1 X-15.579 Y-12.881 E3.53936
G1 X-15.579 Y-13.780 E0.06934
G1 X15.579 Y17.378 E3.39739
G1 X15.579 Y16.478 E0.06934
G1 X-15.579 Y-14.680 E3.39739
G1 X-15.579 Y-15.579 E0.06934
G1 X15.579 Y15.579 E3.39739
G1 X15.579 Y14.680 E0.06934
G1 X-15.579 Y-16.478 E3.39739
G1 X-15.579 Y-17.378 E0.06934
G1 X15.579 Y13.780 E3.39739
G1 X15.579 Y12.881 E0.06934
G1 X-16.881 Y-19.579 E3.53936
G1 X-15.982 Y-19.579 E0.06934
G1 X15.579 Y11.982 E3.44130
G1 X15.579 Y11.082 E0.06934
G1 X-15.082 Y-19.579 E3.34324
G1 X-14.183 Y-19.579 E0.06934
G1 X15.579 Y10.183 E3.24518
G1 X15.579 Y9.284 E0.06934
G1 X-13.579 Y-19.874 E3.17931
G1 X-13.579 Y-20.773 E0.06934
G1 X15.579 Y8.384 E3.17931
G1 X15.579 Y7.485 E0.06934
G1 X-13.579 Y-21.673 E3.17931
G1 X-13.579 Y-22.572 E0.06934
G1 X15.579 Y6.586 E3.17931
G1 X15.579 Y5.686 E0.06934
G1 X-13.579 Y-23.471 E3.17931
G1 X-13.579 Y-24.371 E0.06934
G1 X15.579 Y4.787 E3.17931
G1 X15.579 Y3.888 E0.06934
G1 X-13.579 Y-25.270 E3.17931
G1 X-13.579 Y-26.169 E0.06934
G1 X15.579 Y2.989 E3.17931
G1 X15.579 Y2.089 E0.06934
G1 X-13.089 Y-26.579 E3.12591
G1 X-12.190 Y-26.579 E0.06934
G1 X15.579 Y1.190 E3.02785
G1 X15.579 Y0.291 E0.06934
G1 X-11.291 Y-26.579 E2.92979
G1 X-10.391 Y-26.579 E0.06934
G1 X15.579 Y-0.609 E2.83173
G1 X15.579 Y-1.508 E0.06934
G1 X-9.492 Y-26.579 E2.73367
G1 X-8.593 Y-26.579 E0.06934
G1 X15.579 Y-2.407 E2.63561
G1 X15.579 Y-3.307 E0.06934
G1 X-7.693 Y-26.579 E2.53755
G1 X-6.794 Y-26.579 E0.06934
G1 X15.579 Y-4.206 E2.43949
G1 X15.579 Y-5.105 E0.06934
G1 X-5.895 Y-26.579 E2.34143
G1 X-4.995 Y-26.579 E0.06934
G1 X15.579 Y-6.005 E2.24337
G1 X15.579 Y-6.904 E0.06934
G1 X-4.096 Y-26.579 E2.14531
G1 X-3.197 Y-26.579 E0.06934
G1 X15.579 Y-7.803 E2.04725
G1 X15.579 Y-8.703 E0.06934
G1 X-2.297 Y-26.579 E1.94919
G1 X-1.398 Y-26.579 E0.06934
G1 X15.579 Y-9.602 E1.85113
G1 X15.579 Y-10.501 E0.06934
G1 X-0.499 Y-26.579 E1.75307
G1 X0.401 Y-26.579 E0.06934
G1 X15.579 Y-11.401 E1.65501
G1 X15.579 Y-12.300 E0.06934
G1 X1.300 Y-26.579 E1.55696
G1 X2.199 Y-26.579 E0.06934
G1 X15.579 Y-13.199 E1.45890
G1 X15.579 Y-14.099 E0.06934
G1 X3.099 Y-26.579 E1.36084
G1 X3.998 Y-26.579 E0.06934
G1 X15.579 Y-14.998 E1.26278
G1 X15.579 Y-15.897 E0.06934
G1 X4.897 Y-26.579 E1.16472
G1 X9.394 Y-26.579 F15000.000
G1 X9.955 Y-26.018 E0.06115 F960.000
G1 X9.726 Y-25.347 E0.05464
G1 X8.494 Y-26.579 E0.13429
G1 X7.595 Y-26.579 E0.06934
G1 X9.717 Y-24.457 E0.23137
G1 X13.006 Y-22.967 F15000.000
G1 X13.579 Y-22.394 E0.06252 F960.000
G1 X13.579 Y-21.494 E0.06934
G1 X12.343 Y-22.730 E0.13473
G1 X11.463 Y-22.711 E0.06792
G1 X13.579 Y-20.595 E0.23076
G1 X13.579 Y-19.696 E0.06934
G1 X6.696 Y-26.579 E0.75052
G1 X5.796 Y-26.579 E0.06934
G1 X15.579 Y-16.797 E1.06666
G1 X15.579 Y-17.696 E0.06934
G1 X13.696 Y-19.579 E0.20533
G1 X14.595 Y-19.579 E0.06934
G1 X15.753 Y-18.421 E0.12626
G1 X16.652 Y-18.421 E0.06934
G1 X15.494 Y-19.579 E0.12626
G1 X16.394 Y-19.579 E0.06934
G1 X17.552 Y-18.421 E0.12626
G1 X18.451 Y-18.421 E0.06934
G1 X17.293 Y-19.579 E0.12626
G1 X18.192 Y-19.579 E0.06934
G1 X19.350 Y-18.421 E0.12626
G1 X-17.780 Y-19.579 F15000.000
G1 X-16.622 Y-18.421 E0.12626 F960.000
G1 X-17.522 Y-18.421 E0.06934
G1 X-18.585 Y-19.484 E0.11594
G1 X-19.035 Y-19.035 E0.04903
G1 X-18.421 Y-18.421 E0.06691
G1 E-4.20000 F1500.00000
G1 Z1.300 F15000.000
G1 X-19.350 Y18.421 F15000.000
G1 Z0.300 F15000.000
G1 E4.20000 F1500.00000
G1 X-18.192 Y19.579 E0.12626 F960.000
G1 X-17.293 Y19.579 E0.06934
G1 X-18.451 Y18.421 E0.12626
G1 X-17.552 Y18.421 E0.06934
G1 X-16.394 Y19.579 E0.12626
G1 X-15.495 Y19.579 E0.06934
G1 X-16.652 Y18.421 E0.12626
G1 X-15.753 Y18.421 E0.06934
G1 X-14.595 Y19.579 E0.12626
G1 X-13.579 Y22.394 F15000.000
G1 X-13.006 Y22.967 E0.06252 F960.000
G1 X-12.343 Y22.730 E0.05423
G1 X-13.579 Y21.495 E0.13472
G1 X-13.579 Y20.595 E0.06934
G1 X-11.463 Y22.711 E0.23075
G1 X-9.955 Y26.018 F15000.000
G1 X-9.394 Y26.579 E0.06114 F960.000
G1 X-8.495 Y26.579 E0.06934
G1 X-9.726 Y25.347 E0.13429
G1 X-9.717 Y24.457 E0.06865
G1 X-7.595 Y26.579 E0.23137
G1 X-6.696 Y26.579 E0.06934
G1 X-15.579 Y17.696 E0.96859
G1 X-15.579 Y16.797 E0.06934
G1 X-5.797 Y26.579 E1.06665
G1 X-4.897 Y26.579 E0.06934
G1 X-15.579 Y15.897 E1.16471
G1 X-15.579 Y14.998 E0.06934
G1 X-3.998 Y26.579 E1.26277
G1 X-3.099 Y26.579 E0.06934
G1 X-15.579 Y14.099 E1.36083
G1 X-15.579 Y13.199 E0.06934
G1 X-2.199 Y26.579 E1.45889
G1 X-1.300 Y26.579 E0.06934
G1 X-15.579 Y12.300 E1.55695
G1 X-15.579 Y11.401 E0.06934
G1 X-0.401 Y26.579 E1.65501
G1 X0.499 Y26.579 E0.06934
G1 X-15.579 Y10.501 E1.75307
G1 X-15.579 Y9.602 E0.06934
G1 X1.398 Y26.579 E1.85113
G1 X2.297 Y26.579 E0.06934
G1 X-15.579 Y8.703 E1.94919
G1 X-15.579 Y7.803 E0.06934
G1 X3.197 Y26.579 E2.04725
G1 X4.096 Y26.579 E0.06934
G1 X-15.579 Y6.904 E2.14531
G1 X-15.579 Y6.005 E0.06934
G1 X4.995 Y26.579 E2.24337
G1 X5.895 Y26.579 E0.06934
G1 X-15.579 Y5.105 E2.34143
G1 X-15.579 Y4.206 E0.06934
G1 X6.794 Y26.579 E2.43949
G1 X7.693 Y26.579 E0.06934
G1 X-15.579 Y3.307 E2.53755
G1 X-15.579 Y2.407 E0.06934
G1 X8.593 Y26.579 E2.63561
G1 X9.492 Y26.579 E0.06934
G1 X-15.579 Y1.508 E2.73366
G1 X-15.579 Y0.609 E0.06934
G1 X10.391 Y26.579 E2.83172
G1 X11.291 Y26.579 E0.06934
G1 X-15.579 Y-0.291 E2.92978
G1 X-15.579 Y-1.190 E0.06934
G1 X12.190 Y26.579 E3.02784
G1 X13.089 Y26.579 E0.06934
G1 X-15.579 Y-2.089 E3.12590
G1 X-15.579 Y-2.988 E0.06934
G1 X13.579 Y26.169 E3.17931
G1 X13.579 Y25.270 E0.06934
G1 X-15.579 Y-3.888 E3.17931
G1 X-15.579 Y-4.787 E0.06934
G1 X13.579 Y24.371 E3.17931
G1 X13.579 Y23.471 E0.06934
G1 X-15.579 Y-5.686 E3.17931
G1 X-15.579 Y-6.586 E0.06934
G1 X13.579 Y22.572 E3.17931
G1 X13.579 Y21.673 E0.06934
G1 X-15.579 Y-7.485 E3.17931
G1 X-15.579 Y-8.384 E0.06934
G1 X13.579 Y20.774 E3.17931
G1 X13.579 Y19.874 E0.06934
G1 X-15.579 Y-9.284 E3.17931
G1 X-15.579 Y-10.183 E0.06934
G1 X14.183 Y19.579 E3.24518
G1 X15.082 Y19.579 E0.06934
G1 X-15.579 Y-11.082 E3.34324
G1 X-15.579 Y-11.982 E0.06934
G1 X15.982 Y19.579 E3.44130
G1 E-4.20000 F1500.00000
G1 Z1.300 F15000.000
G1 X-22.441 Y15.330 F15000.000
G1 Z0.300 F15000.000
G1 E4.20000 F1500.00000
G1 X-23.579 Y14.192 E0.12706 F960.000
G1 X-23.579 Y13.271 E0.07271
G1 X-22.421 Y14.429 E0.12929
G1 X-22.421 Y13.508 E0.07271
G1 X-23.579 Y12.351 E0.12929
G1 X-23.579 Y11.430 E0.07271
G1 X-22.421 Y12.588 E0.12929
G1 X-22.421 Y11.667 E0.07271
G1 X-23.579 Y10.509 E0.12929
G1 X-23.579 Y9.588 E0.07271
G1 X-22.421 Y10.746 E0.12929
G1 X-22.421 Y9.825 E0.07271
G1 X-23.579 Y8.667 E0.12929
G1 X-23.579 Y7.746 E0.07271
G1 X-22.421 Y8.904 E0.12929
G1 X-22.421 Y7.983 E0.07271
G1 X-23.579 Y6.825 E0.12929
G1 X-23.579 Y5.904 E0.07271
G1 X-22.421 Y7.062 E0.12929
G1 X-22.421 Y6.141 E0.07271
G1 X-23.579 Y4.983 E0.12929
G1 X-23.579 Y4.062 E0.07271
G1 X-22.421 Y5.220 E0.12929
G1 X-22.421 Y4.299 E0.07271
G1 X-23.579 Y3.141 E0.12929
G1 X-23.579 Y2.220 E0.07271
G1 X-22.421 Y3.378 E0.12929
